!!!!SEGMENT: pl-cz--ii-129--001-008_kozlowski-jozef--requiem-sanctus.krn
!!!cenid: 18xx:931
!!!COM: Kozłowski, Józef
!!!COM-rismID: pe30003850
!!!CDT: 1757-1831
!!!CNT: Polish
!!!OPR: Requiem
!!!OTL: Sanctus
!!!OMV: 008
!!!PDT:
!!!AGN: Sacred; Requiem
!!!SMS-siglum: PL-CZ
!!!SMS-shelfmark: II-129
!!!SMS-shelfwork: 001-008 M
!!!SMS-variant:
!!!SMS-altvar:
!!!NIFC-rismSourceID: 300000626
!!!NIFC-rismChildID: 300000626
!!!NIFC-islandoraID: pl-cz:32191
!!!URL-pdf-islandora: https://repozytorium.nifc.pl/islandora/object/pl-cz%3A32191/datastream/PDF/view
!!!URL-scan: https://polish.musicsources.pl/pl/lokalizacje/galeria/rekopisy/6756/1 @EN{Scan on Polish Music Sources Website} @PL{Skany w portalu Dziedzictwo Muzyki Polskiej w otwartym dostępie}
!!!IIIF:
!!!ONB-nifc: UWAGA: części Requiem: Requiem, Dies irae, Tuba mirrum, Judex ergo, Confutatis, Lacrimosa, Offertorium, Sanctus, O rex intende hostias, Agnus Dei, Quia pius es, Requiem, Salve Regina
!!!AIN: 1 bass 1 cbass 1 cello 2 clars 2 cor 2 fagot 2 flt 2 oboe 1 soprn 1 tenor 1 timpa 1 troma 1 tromb 2 tromp 1 tromt 2 viola 2 violn
!!!key: B-
**kern	**dynam	**kern	**kern	**kern	**kern	**dynam	**kern	**kern	**dynam	**kern	**text	**dynam	**kern	**text	**dynam	**kern	**dynam	**kern	**dynam	**kern	**dynam	**kern	**dynam	**kern	**dynam	**kern	**dynam	**kern	**dynam	**kern	**dynam	**kern	**dynam	**kern	**dynam	**kern	**dynam	**kern	**dynam	**kern	**dynam	**kern	**dynam	**kern	**dynam	**kern	**dynam
*group4	*	*group4	*group4	*group4	*group4	*	*group4	*group3	*	*group3	*	*	*group3	*	*	*	*	*group2	*	*group2	*	*group2	*	*group2	*	*group2	*	*group2	*	*group2	*	*group1	*	*group1	*	*group1	*	*group1	*	*group1	*	*group1	*	*group1	*	*group1	*
*part25	*part24	*part24	*part23	*part22	*part21	*part21	*part20	*part19	*part19	*part18	*part18	*part18	*part17	*part17	*part17	*part16	*part16	*part15	*part15	*part14	*part14	*part13	*part13	*part12	*part12	*part11	*part11	*part10	*part10	*part9	*part9	*part8	*part8	*part7	*part7	*part6	*part6	*part5	*part5	*part4	*part4	*part3	*part3	*part2	*part2	*part1	*part1
*staff25	*	*staff24	*staff23	*staff22	*staff21	*	*staff20	*staff19	*	*staff18	*staff18	*	*staff17	*staff17	*	*staff16	*	*staff15	*	*staff14	*	*staff13	*	*staff12	*	*staff11	*	*staff10	*	*staff9	*	*staff8	*	*staff7	*	*staff6	*	*staff5	*	*staff4	*	*staff3	*	*staff2	*	*staff1	*
*I"Baſso.	*	*I"Violonʒello.	*I"Alto Viola Solo	*I"Alto Viola.	*I"Violino 2.do	*	*I"Violino 1.mo	*I"Baſso.	*	*I"Tenore.	*	*	*I"Soprano.	*	*	*I"Timpani in C.	*	*I"Trombane Baſso.	*	*I"Trombane Tenore	*	*I"Trombane Alto	*	*I"Tromba IIdo in Es.	*	*I"Tromba Imo in Es.	*	*I"Corno Secundo. in Es.	*	*I"Corno Imo in Es.	*	*I"Fagotto IIdo	*	*I"Fagotto 1mo	*	*I"Clarinetto Secundo. in B.	*	*I"Clarinetto Primo in B.	*	*I"Oboe Secundo	*	*I"Oboe Primo	*	*I"Flauto. Secundo.	*	*I"Flauto Primo	*
*I'cb	*	*I'vlc	*I'vla	*I'vla	*I'vl II	*	*I'vl I	*I'B	*	*I'T	*	*	*I'S	*	*	*I'timp	*	*I'b-trb	*	*I't-trb	*	*I'a-trb	*	*I'tr II in E|b	*	*I'tr I in E|b	*	*I'cor II in E|b	*	*I'cor I in E|b	*	*I'fag II	*	*I'fag I	*	*I'cl II i B	*	*I'cl I in B	*	*I'ob II	*	*I'ob I	*	*I'fl II	*	*I'fl I	*
*Icbass	*	*Icello	*Iviola	*Iviola	*Ivioln	*	*Ivioln	*Ibass	*	*Itenor	*	*	*Isoprn	*	*	*Itimpa	*	*Itromb	*	*Itromt	*	*Itroma	*	*Itromp	*	*Itromp	*	*Icor	*	*Icor	*	*Ifagot	*	*Ifagot	*	*Iclars	*	*Iclars	*	*Ioboe	*	*Ioboe	*	*Iflt	*	*Iflt	*
*ICstr	*	*ICstr	*ICstr	*ICstr	*ICstr	*	*ICstr	*ICvox	*	*ICvox	*	*	*ICvox	*	*	*ICidio	*	*ICbras	*	*ICbras	*	*ICbras	*	*ICbras	*	*ICbras	*	*ICbras	*	*ICbras	*	*ICww	*	*ICww	*	*ICww	*	*ICww	*	*ICww	*	*ICww	*	*ICww	*	*ICww	*
*	*	*	*	*	*	*	*	*IGcoro	*	*IGcoro	*	*	*IGcoro	*	*	*	*	*	*	*	*	*	*	*	*	*	*	*	*	*	*	*	*	*	*	*	*	*	*	*	*	*	*	*	*	*	*
*clefF4	*	*clefF4	*clefC3	*clefC3	*clefG2	*	*clefG2	*clefF4	*	*clefC4	*	*	*clefC1	*	*	*clefF4	*	*clefF4	*	*clefC4	*	*clefC3	*	*clefG2	*	*clefG2	*	*clefG2	*	*clefG2	*	*clefF4	*	*clefC4	*	*clefG2	*	*clefG2	*	*clefG2	*	*clefG2	*	*clefG2	*	*clefG2	*
*ITrd0c0	*	*	*	*	*	*	*	*	*	*	*	*	*	*	*	*ITrd1c2	*	*	*	*	*	*	*	*ITrd1c2	*	*ITrd1c2	*	*ITrd5c9	*	*ITrd5c9	*	*	*	*	*	*ITrd1c2	*	*ITrd1c2	*	*	*	*	*	*	*	*	*
*k[b-e-]	*	*k[b-e-]	*k[b-e-]	*k[b-e-]	*k[b-e-]	*	*k[b-e-]	*k[b-e-]	*	*k[b-e-]	*	*	*k[b-e-]	*	*	*k[b-e-]	*	*k[b-e-]	*	*k[b-e-]	*	*k[b-e-]	*	*k[b-e-]	*	*k[b-e-]	*	*k[b-e-a-]	*	*k[b-e-a-]	*	*k[b-e-]	*	*k[b-e-]	*	*k[b-e-]	*	*k[b-e-]	*	*k[b-e-]	*	*k[b-e-]	*	*k[b-e-]	*	*k[b-e-]	*
*B-:	*	*B-:	*B-:	*B-:	*B-:	*	*B-:	*B-:	*	*B-:	*	*	*B-:	*	*	*B-:	*	*B-:	*	*B-:	*	*B-:	*	*B-:	*	*B-:	*	*B-:	*	*B-:	*	*B-:	*	*B-:	*	*B-:	*	*B-:	*	*B-:	*	*B-:	*	*B-:	*	*B-:	*
*M4/4	*	*M4/4	*M4/4	*M4/4	*M4/4	*	*M4/4	*M4/4	*	*M4/4	*	*	*M4/4	*	*	*M4/4	*	*M4/4	*	*M4/4	*	*M4/4	*	*M4/4	*	*M4/4	*	*M4/4	*	*M4/4	*	*M4/4	*	*M4/4	*	*M4/4	*	*M4/4	*	*M4/4	*	*M4/4	*	*M4/4	*	*M4/4	*
*met(c)	*	*met(c)	*met(c)	*met(C.)	*met(C.)	*	*met(C.)	*met(C.)	*	*met(C.)	*	*	*met(C.)	*	*	*met(c)	*	*met(c)	*	*met(c)	*	*met(c)	*	*met(c)	*	*met(c)	*	*met(c)	*	*met(c)	*	*met(c)	*	*met(c)	*	*met(c)	*	*met(c)	*	*met(c)	*	*met(c)	*	*met(c)	*	*met(c)	*
=1	=1	=1	=1	=1	=1	=1	=1	=1	=1	=1	=1	=1	=1	=1	=1	=1	=1	=1	=1	=1	=1	=1	=1	=1	=1	=1	=1	=1	=1	=1	=1	=1	=1	=1	=1	=1	=1	=1	=1	=1	=1	=1	=1	=1	=1	=1	=1
*all\right	*below	*	*	*all\right	*all\right	*	*all\right	*all\right	*	*all\right	*	*	*all\right	*	*	*	*	*all\right	*	*all\right	*	*all\right	*	*	*	*all\right	*	*all\right	*	*all\right	*	*all\right	*	*all\right	*	*all\right	*	*all\right	*	*all\right	*	*all\right	*	*all\right	*	*all\right	*
!	!	!	!LO:TX:t=P:problem=instrument gra tylko w części 4.Judex ergo	!	!	!	!	!	!	!	!	!	!	!	!	!	!	!	!	!	!	!	!	!	!	!	!	!	!	!	!	!	!	!	!	!	!	!	!	!	!	!	!	!	!	!	!
!	!	!	!	!	!	!	!LO:TX:a:t=2	!LO:TX:t=P:problem=brak tekstu	!	!	!	!	!LO:TX:t=P:problem=kolejność znaków b- ee-	!LO:TX:t=P:problem=oznaczenie metryczne C z kropką	!	!LO:TX:a:t=1	!	!	!	!	!	!	!	!	!	!	!	!LO:TX:t=P:problem=brak znaków przykluczowych	!	!	!	!	!	!	!	!	!	!	!	!	!	!	!	!	!	!	!
!	!	!	!	!LO:TX:a:t=12	!	!	!	!	!	!	!	!	!	!LO:TX:t=P:problem=kolejność znaków b- ee-	!	!LO:TX:a:i:t=Largo.	!	!LO:TX:a:t=1	!	!LO:TX:a:t=1	!	!LO:TX:a:t=1	!	!LO:TX:a:i:t=Largo.	!	!LO:TX:a:i:t=Largo.	!LO:DY:rj:t=po	!LO:TX:a:i:t=Largo.	!LO:DY:rj	!LO:TX:a:i:t=Largo. in Es	!	!	!	!	!	!	!	!	!	!	!	!	!	!LO:TX:a:t=1	!	!LO:TX:a:t=1	!
!LO:TX:a:i:rj:t=Largo	!	!LO:TX:t=P:problem=zgodnie z RISM "Głos vlc niedokończony&colon; zapis nutowy do części "Offertorium" włącznie; f. 6v-8v puste"	!	!LO:TX:a:i:t=Largo.	!LO:TX:a:i:rj:t=Largo.	!	!LO:TX:a:i:rj:t=Largo.	!LO:TX:a:i:rj:t=Largo.	!LO:DY:b:rj	!LO:TX:a:i:rj:t=Largo.	!	!LO:HP:b	!LO:TX:a:i:rj:t=Largo.	!	!LO:DY:b:rj	!LO:TX:a:i:t=Sanctus Timpani Es. B.	!	!LO:TX:a:i:t=Largo.	!	!LO:TX:a:i:t=Largo.	!	!LO:TX:a:i:t=Largo.	!	!LO:TX:a:i:t=Sanctus Corno et Tromba in B.	!	!LO:TX:a:B:i:t=Sanctus Corno et Tromba in B.	!	!	!	!LO:TX:t=P:problem=brak znaków przykluczowych	!	!LO:TX:a:i:rj:t=Largo	!LO:DY:t=po	!LO:TX:a:i:t=Largo.	!LO:DY:rj	!LO:TX:a:i:t=Largo	!LO:DY:rj:t=po	!LO:TX:a:i:t=Largo.	!LO:DY:rj:t=po	!LO:TX:a:i:t=Largo	!LO:DY:rj:t=po	!LO:TX:a:i:t=Largo	!LO:DY:rj:t=po	!LO:TX:a:i:t=Largo	!	!LO:TX:a:i:t=Largo.	!
(>1BB-	p <	1ryy	1ryy	00r	0r;	.	0r;	1B-	p	1f	San-	<	1dd	San-	p	1r	.	1r	.	1r	.	1r	.	(1b-	p <	(1dd	p <	(<1B-	p <	[1f	<	(1B-	p <	(1d	p <	(1b-	p <	(1dd	p <	(<1b-	p <	(1dd	p <	1r	.	1r	.
!	!	!	!	!	!	!	!	!	!	!	!	!LO:HP:b	!	!	!	!	!	!	!	!	!	!	!	!	!	!	!	!	!	!	!	!	!	!	!	!	!	!	!	!	!	!	!	!	!	!	!
.	[ >	.	.	.	.	.	.	.	.	.	.	[ > ]	.	.	.	.	.	.	.	.	.	.	.	.	[ >	.	[ >	.	[ >	.	[ >	.	[ >	.	[ >	.	[ >]	.	[ >	.	[ >	.	[ >	.	.	.	.
=2	=2	=2	=2	=2	=2	=2	=2	=2	=2	=2	=2	=2	=2	=2	=2	=2	=2	=2	=2	=2	=2	=2	=2	=2	=2	=2	=2	=2	=2	=2	=2	=2	=2	=2	=2	=2	=2	=2	=2	=2	=2	=2	=2	=2	=2	=2	=2
*	*	*	*	*	*	*	*	*2\right	*	*2\right	*	*	*2\right	*	*	*	*	*	*	*	*	*	*	*	*	*2\right	*	*2\right	*	*2\right	*	*2\right	*	*2\right	*	*2\right	*	*2\right	*	*	*	*2\right	*	*	*	*	*
2.FF/)	]	1ryy	1ryy	.	.	.	.	2.B-\	.	2.f\	-ctus	.	2.cc\	-ctus	.	1r;	.	1r;	.	1r;	.	1r;	.	2.f/)	]	2.cc\)	]	2.f\)	]	2.f\]	]	2.A\)	]	2.c\)	]	2.a\)	.	2.cc\)	]	2.a/)	]	2.cc\)	]	1r;	.	1r;	.
!	!	!	!	!	!	!	!LO:TX:t=P:problem=kreska taktowa podwójna	!LO:TX:t=P:problem=kreska taktowa podwójna	!	!	!	!	!	!	!	!	!	!	!	!	!	!	!	!	!	!	!	!	!	!	!	!	!	!	!	!	!	!	!	!	!	!	!	!	!	!	!
4r;	.	.	.	.	.	.	.	4r;	.	4r;	.	.	4r;	.	.	.	.	.	.	.	.	.	.	4r;	.	4r;	.	4r;	.	4r;	.	4r;	.	4r;	.	4r;	.	4r;	.	4r;	.	4r;	.	.	.	.	.
=3	=3	=3	=3	=3	=3	=3	=3	=3	=3	=3	=3	=3	=3	=3	=3	=3	=3	=3	=3	=3	=3	=3	=3	=3	=3	=3	=3	=3	=3	=3	=3	=3	=3	=3	=3	=3	=3	=3	=3	=3	=3	=3	=3	=3	=3	=3	=3
!	!LO:DY:rj	!	!	!	!	!	!LO:TX:a:t=2	!	!LO:DY:b:rj	!	!	!	!	!	!LO:DY:b:rj	!LO:TX:a:t=1	!	!LO:TX:a:t=1	!	!LO:TX:a:t=1	!	!LO:TX:a:t=1	!	!	!LO:DY:rj:t=po	!	!	!	!LO:DY:t=po	!	!	!	!	!	!LO:DY:rj:t=po	!	!LO:DY:rj:t=po	!	!	!	!	!	!LO:DY:rj:t=po	!LO:TX:a:t=1	!	!LO:TX:a:t=1	!
(2FF/	p <	1ryy	1ryy	.	0r;	.	0r;	1B-	p	1f	San-	.	1ee-	San-	p	1r	.	1r	.	1r	.	1r	.	(1f	p <	(1cc	<	(1f	p <	[1f	<	(1A	p <	(1c	p <	(1cc	p <	(1ee-	<	(1cc	<	(1ee-	p <	1r	.	1r	.
2AA/)	[ >	.	.	.	.	.	.	.	.	.	.	.	.	.	.	.	.	.	.	.	.	.	.	.	[ >	.	[ >	.	[ >	.	[ >	.	[ >	.	[ >	.	[ >	.	[ >	.	[ >]	.	[ >	.	.	.	.
=4	=4	=4	=4	=4	=4	=4	=4	=4	=4	=4	=4	=4	=4	=4	=4	=4	=4	=4	=4	=4	=4	=4	=4	=4	=4	=4	=4	=4	=4	=4	=4	=4	=4	=4	=4	=4	=4	=4	=4	=4	=4	=4	=4	=4	=4	=4	=4
*	*	*	*	*	*	*	*	*	*	*	*	*	*	*	*	*	*	*	*	*	*	*	*	*2\right	*	*	*	*	*	*	*	*	*	*	*	*	*	*	*	*2\right	*	*	*	*	*	*	*
2.BB-/	]	1ryy	1ryy	.	.	.	.	2.B-\	.	2.f\	-ctus	.	2.dd\	-ctus,	.	1r;	.	1r;	.	1r;	.	1r;	.	2.b-\)	]	2.dd\)	]	2.B-/)	]	2.f\]	]	2.B-\)	]	2.d\)	]	2.b-\)	]	2.dd\)	]	2.b-\)	.	2.dd\)	]	1r;	.	1r;	.
!	!	!	!	!	!LO:TX:t=P:problem=kreska taktowa podwójna	!	!LO:TX:t=P:problem=kreska taktowa podwójna	!LO:TX:t=P:problem=kreska taktowa podwójna	!	!	!	!	!	!	!	!	!	!	!	!	!	!	!	!	!	!	!	!	!	!	!	!	!	!	!	!	!	!	!	!	!	!	!	!	!	!	!
4r;	.	.	.	.	.	.	.	4r;	.	4r;	.	.	4r;	.	.	.	.	.	.	.	.	.	.	4r;	.	4r;	.	4r;	.	4r	.	4r;	.	4r;	.	4r;	.	4r;	.	4r;	.	4r;	.	.	.	.	.
!LO:LB:g=original	!	!	!	!	!	!	!	!LO:LB:g=original	!	!	!	!	!	!	!	!	!	!	!	!	!	!	!	!	!	!	!	!	!	!	!	!	!	!	!	!	!	!	!	!LO:LB:g=original	!	!LO:LB:g=original	!	!	!	!	!
=5	=5	=5	=5	=5	=5	=5	=5	=5	=5	=5	=5	=5	=5	=5	=5	=5	=5	=5	=5	=5	=5	=5	=5	=5	=5	=5	=5	=5	=5	=5	=5	=5	=5	=5	=5	=5	=5	=5	=5	=5	=5	=5	=5	=5	=5	=5	=5
*2\right	*	*	*	*	*	*	*	*	*	*	*	*	*	*	*	*	*	*2\right	*	*2\right	*	*2\right	*	*	*	*	*	*	*	*	*	*	*	*	*	*	*	*	*	*	*	*	*	*2\right	*	*2\right	*
!	!	!	!	!	!	!	!	!	!	!	!	!	!	!	!	!	!LO:DY:rj	!	!	!	!LO:DY:rj	!	!LO:DY:rj	!	!LO:DY:rj	!	!	!	!LO:DY:rj	!	!	!	!LO:DY:rj	!	!	!	!	!	!	!	!LO:DY:rj	!	!	!	!LO:DY:rj:t=fo	!	!
2E-^<\	fz	1ryy	1ryy	00r	00r;	.	00r;	2E-\	.	2B-\	San-	.	2gg\	San-	.	1FF	f	2E-^<\	.	2e-^<\	sf	2e-^<\	f	2B-^/	f	2b-\	.	2e-^<\	f	2g\	.	(2e-^<\	f	2g^<\	f	2b-\	.	2gg\	.	2b-^<\	f	2gg^<\	f	2bb-^<\	f	2ggg^<\	f
2D^<\	fz	.	.	.	.	.	.	2G\	.	2d\	-ctus	.	2ff\	-ctus	.	.	.	2D^<\	.	2d^<\	sf	2d^<\	.	2B-^/	.	2b-\	.	2B-^</	.	2f\	.	2d^<\)	.	2f^<\	f	2b-\	.	2ff\	.	2b-^<\	.	2ff^<\	.	2bb-^<\	.	2fff^<\	.
!	!	!	!	!	!	!	!	!	!	!	!	!	!LO:LB:g=original	!	!	!	!	!	!	!	!	!	!	!	!	!	!	!	!	!	!	!LO:LB:g=original	!	!LO:LB:g=original	!	!LO:LB:g=original	!	!	!	!	!	!	!	!	!	!	!
=6	=6	=6	=6	=6	=6	=6	=6	=6	=6	=6	=6	=6	=6	=6	=6	=6	=6	=6	=6	=6	=6	=6	=6	=6	=6	=6	=6	=6	=6	=6	=6	=6	=6	=6	=6	=6	=6	=6	=6	=6	=6	=6	=6	=6	=6	=6	=6
.	.	.	.	.	.	.	.	.	.	.	.	.	8qff/	.	.	.	.	.	.	.	.	.	.	.	.	.	.	.	.	.	.	.	.	8qf/	.	.	.	8qff/	.	.	.	8qff/	.	8qbb-/	.	8qfff/	.
2C^</	fz	1ryy	1ryy	.	.	.	.	4.B-\	.	4.f\	Do-	.	4.ee-\	Do-	.	4.BB-/	.	2C^<\	.	2c^<\	sf	2c^<\	.	4.f^/	.	4.cc\	.	4.f^<\	.	4.f^<\	.	4.c^<\	.	4.e-^<\	.	(4.a^<\	.	4.ee-^<\	.	4.a^<\	.	4.ee-^<\	.	4.aa^<\	.	4.eee-^<\	.
.	.	.	.	.	.	.	.	8B-\	.	8f\	-mi-	.	8ee-\	-mi-	.	8BB-/	.	.	.	.	.	.	.	8f/	.	8cc\	.	8f\	.	8f\	.	8c\	.	8e-\	.	8a\	.	8ee-\	.	8a\	.	8ee-\	.	8aa\	.	8eee-\	.
!	!	!	!	!	!	!	!	!	!	!	!	!	!	!	!	!	!	!	!	!	!	!	!	!	!	!	!	!	!	!	!	!	!	!	!	!	!	!	!	!	!	!	!	!LO:LB:g=original	!	!LO:LB:g=original	!
2BB-^</	fz	.	.	.	.	.	.	2B-\	.	2f\	-nus	.	2dd\	-nus	.	2FF/	.	2BB-^<\	.	2B-^<\	sf	2B-^<\	.	2b-^<\	.	2dd\	.	2B-^</	.	2f^<\	.	2B-^<\	.	2d^<\	.	2b-^<\)	.	2dd^<\	.	2b-^<\	.	2dd^<\	.	2bb-^<\	.	2ddd^<\	.
!	!	!	!	!	!	!	!	!	!	!LO:LB:g=original	!	!	!	!	!	!	!	!	!	!	!	!LO:LB:g=original	!	!	!	!	!	!	!	!LO:LB:g=original	!	!	!	!	!	!	!	!LO:LB:g=original	!	!	!	!	!	!	!	!	!
=7	=7	=7	=7	=7	=7	=7	=7	=7	=7	=7	=7	=7	=7	=7	=7	=7	=7	=7	=7	=7	=7	=7	=7	=7	=7	=7	=7	=7	=7	=7	=7	=7	=7	=7	=7	=7	=7	=7	=7	=7	=7	=7	=7	=7	=7	=7	=7
*^	*	*	*	*	*	*	*	*	*	*	*	*	*	*	*	*	*	*	*	*	*	*	*	*	*	*	*	*	*	*	*	*	*	*	*	*	*	*	*	*	*	*	*	*	*	*	*
!LO:TX:a:t=Celo	!	!	!	!	!	!	!	!	!	!	!	!	!	!	!	!	!LO:TX:a:t=1	!	!LO:TX:a:t=1	!	!LO:TX:a:t=1	!	!LO:TX:a:t=1	!	!LO:TX:a:t=1	!	!LO:TX:a:t=1	!	!	!LO:DY:t=po	!	!LO:DY:t=po	!	!LO:DY:t=po	!	!LO:DY:t=po	!	!	!	!LO:DY:t=po	!	!	!	!LO:DY:t=po	!	!	!	!
(2F/	(8FF'/L	.	1ryy	1ryy	.	.	.	.	4B-\	.	4f\	De-	.	4cc\	De-	.	1r	.	1r	.	1r	.	1r	.	1r	.	1r	.	[1f	p	[1f	p	(4A\	p	(4c\	p	(4a\	.	(4cc\	p	(4a\	.	(4cc\	p	(4aa\	p	(4ccc\	.
.	8FF'/	.	.	.	.	.	.	.	.	.	.	.	.	.	.	.	.	.	.	.	.	.	.	.	.	.	.	.	.	.	.	.	.	.	.	.	.	.	.	.	.	.	.	.	.	.	.	.
.	8FF'/	.	.	.	.	.	.	.	4B-\	.	4f\	-us	.	4dd\	-us	.	.	.	.	.	.	.	.	.	.	.	.	.	.	.	.	.	4B-\	.	4d\	.	4b-\	.	4dd\	.	4b-\	.	4dd\	.	4bb-\	.	4ddd\	.
.	8FF'/J)	.	.	.	.	.	.	.	.	.	.	.	.	.	.	.	.	.	.	.	.	.	.	.	.	.	.	.	.	.	.	.	.	.	.	.	.	.	.	.	.	.	.	.	.	.	.	.
.	.	.	.	.	.	.	.	.	.	.	.	.	.	8qqff/	.	.	.	.	.	.	.	.	.	.	.	.	.	.	.	.	.	.	8qd/	.	8qf/	.	8qdd/	.	8qff/	.	8qdd/	.	8qff/	.	8qddd/	.	8qfff/	.
4.A/	(8FF'/L	.	.	.	.	.	.	.	4.B-\	.	4.f\	Sa-	.	4.ee-\	Sa-	.	.	.	.	.	.	.	.	.	.	.	.	.	.	.	.	.	4.c^<\	.	4.e-^<\	.	4.cc^<\	.	4.ee-^<\	.	4.cc^<\	.	4.ee-^<\	.	4.ccc\	>	4.eee-\	.
.	8FF'/	.	.	.	.	.	.	.	.	.	.	.	.	.	.	.	.	.	.	.	.	.	.	.	.	.	.	.	.	.	.	.	.	.	.	.	.	.	.	.	.	.	.	.	.	.	.	.
.	8FF'/	.	.	.	.	.	.	.	.	.	.	.	.	.	.	.	.	.	.	.	.	.	.	.	.	.	.	.	.	.	.	.	.	.	.	.	.	.	.	.	.	.	.	.	.	.	.	.
8B-/)	8FF'/J)	.	.	.	.	.	.	.	8B-\	.	8f\	-ba-	.	8dd\	-ba-	.	.	.	.	.	.	.	.	.	.	.	.	.	.	.	.	.	8B-\)	.	8d\)	.	8b-\)	.	8dd\)	.	8b-\)	.	8dd\)	.	8bb-\)	]	8ddd\)	.
!	!	!	!	!	!	!	!	!	!	!	!	!	!	!	!	!	!	!	!	!	!LO:LB:g=original	!	!	!	!LO:LB:g=original	!	!LO:LB:g=original	!	!	!LO:LB:g=original	!	!	!	!	!	!	!	!	!	!	!	!	!	!	!	!	!	!
=8	=8	=8	=8	=8	=8	=8	=8	=8	=8	=8	=8	=8	=8	=8	=8	=8	=8	=8	=8	=8	=8	=8	=8	=8	=8	=8	=8	=8	=8	=8	=8	=8	=8	=8	=8	=8	=8	=8	=8	=8	=8	=8	=8	=8	=8	=8	=8	=8
!	!	!	!	!	!	!	!	!	!	!	!	!LO:MO:mod=-oth	!	!	!LO:MO:mod=-oth	!	!	!	!	!	!	!	!	!	!	!LO:DY:t=po	!	!LO:DY:t=po	!	!	!	!	!	!	!	!	!	!	!	!	!	!	!	!	!	!	!	!
8F/L	8FF/L	.	1ryy	1ryy	.	.	.	.	2.B-\	.	2f\	-oht	.	2dd\	-ot,	.	1r;	.	1r;	.	1r;	.	1r;	.	(2b-\	p	(2dd\	p	2f\_	.	2f\]	.	(2f\	.	(2f\	.	(2b-\	.	(2dd\	.	(2b-\	.	(2dd\	.	(2bb-\	.	(2ddd\	.
8F/	8FF/	.	.	.	.	.	.	.	.	.	.	.	.	.	.	.	.	.	.	.	.	.	.	.	.	.	.	.	.	.	.	.	.	.	.	.	.	.	.	.	.	.	.	.	.	.	.	.
8F/	8FF/	.	.	.	.	.	.	.	.	.	.	.	.	.	.	.	.	.	.	.	.	.	.	.	.	.	.	.	.	.	.	.	.	.	.	.	.	.	.	.	.	.	.	.	.	.	.	.
8F/J	8FF/J	.	.	.	.	.	.	.	.	.	.	.	.	.	.	.	.	.	.	.	.	.	.	.	.	.	.	.	.	.	.	.	.	.	.	.	.	.	.	.	.	.	.	.	.	.	.	.
4F/	4FF/	.	.	.	.	.	.	.	.	.	4f\	.	.	4cc\	.	.	.	.	.	.	.	.	.	.	4f\)	.	4cc\)	.	4f\]	.	4f\	.	4F\)	.	4F/)	.	4a\)	.	4cc\)	.	4a\)	.	4cc\)	.	4aa\)	.	4ccc\)	.
!	!	!	!	!	!	!LO:TX:t=P:problem=kreska taktowa podwójna	!	!LO:TX:t=P:problem=kreska taktowa podwójna	!LO:TX:t=P:problem=kreska taktowa podwójna	!	!LO:TX:t=P:problem=kreska taktowa podwójna	!	!	!LO:TX:t=P:problem=kreska taktowa podwójna	!	!	!	!	!	!	!	!	!	!	!	!	!	!	!	!	!	!	!	!	!	!	!	!	!	!	!	!	!	!	!	!	!	!
4r;	4ryy	.	.	.	.	.	.	.	4r;	.	4r;	.	.	4r;	.	.	.	.	.	.	.	.	.	.	4r;	.	4r;	.	4r;	.	4r;	.	4r;	.	4r;	.	4r;	.	4r;	.	4r;	.	4r;	.	4r;	.	4r;	.
*v	*v	*	*	*	*	*	*	*	*	*	*	*	*	*	*	*	*	*	*	*	*	*	*	*	*	*	*	*	*	*	*	*	*	*	*	*	*	*	*	*	*	*	*	*	*	*	*	*
*	*	*	*	*	*	*	*	*	*	*	*	*	*	*	*	*	*	*	*	*	*	*	*	*	*	*	*	*	*	*	*	*	*	*clefF4	*	*	*	*	*	*	*	*	*	*	*	*	*
!	!	!	!	!	!	!	!	!	!	!	!	!	!	!	!	!LO:LB:g=original	!	!LO:LB:g=original	!	!	!	!	!	!	!	!	!	!	!	!	!	!LO:PB:g=original	!	!	!	!	!	!	!	!	!	!	!	!	!	!	!
=9	=9	=9	=9	=9	=9	=9	=9	=9	=9	=9	=9	=9	=9	=9	=9	=9	=9	=9	=9	=9	=9	=9	=9	=9	=9	=9	=9	=9	=9	=9	=9	=9	=9	=9	=9	=9	=9	=9	=9	=9	=9	=9	=9	=9	=9	=9	=9
!	!LO:DY:rj	!	!	!	!	!	!	!	!	!	!	!	!	!	!	!LO:TX:a:t=1	!	!LO:TX:a:t=1	!	!LO:TX:a:t=1	!	!LO:TX:a:t=1	!	!	!LO:DY:rj:t=po	!	!	!	!	!	!	!	!LO:DY:rj	!	!LO:DY:rj	!	!LO:DY:rj	!	!	!	!	!	!	!	!	!	!LO:DY:t=po
(4BB-\	pp <	1ryy	1ryy	00r;	0r;	.	0r;	1B-	.	1d	San-	.	1dd	san-	.	1r	.	1r	.	1r	.	1r	.	(1b-	p <	(1dd	p <	(1B-	pp <	(1B-	pp	(4BB-\	pp <	(4BB-\	pp <	(1f	pp <	1dd	pp <	(1dd	pp <	(1ff	pp <[	1bb-	<	1ddd	p <
4D\	.	.	.	.	.	.	.	.	.	.	.	.	.	.	.	.	.	.	.	.	.	.	.	.	.	.	.	.	.	.	.	4D\	[ <	4D\	[	.	.	.	.	.	.	.	.	.	.	.	.
4F\	[ >	.	.	.	.	.	.	.	.	.	.	.	.	.	.	.	.	.	.	.	.	.	.	.	.	.	.	.	.	.	.	4F\	[ <	4F\	>	.	[ >	.	.	.	[ >	.	.	.	[ >	.	[ >
4B-\)	]]	.	.	.	.	.	.	.	.	.	.	.	.	.	.	.	.	.	.	.	.	.	.	.	[ >	.	[ >	.	[ >	.	.	4B-\)	[ < [	4B-\)	]	.	.	.	[ >	.	]]	.	.	.	]]	.	]]
!LO:LB:g=original	!	!	!	!	!	!	!	!	!	!	!	!	!	!	!	!	!	!	!	!	!	!	!	!	!	!	!	!	!	!	!	!	!	!	!	!	!	!	!	!	!	!	!	!	!	!	!
=10	=10	=10	=10	=10	=10	=10	=10	=10	=10	=10	=10	=10	=10	=10	=10	=10	=10	=10	=10	=10	=10	=10	=10	=10	=10	=10	=10	=10	=10	=10	=10	=10	=10	=10	=10	=10	=10	=10	=10	=10	=10	=10	=10	=10	=10	=10	=10
2.A\	.	1ryy	1ryy	.	.	.	.	2.A\	.	2.e-\	-ctus	.	2.cc;\	-ctus	.	1r;	.	1r;	.	1r;	.	1r;	.	2.cc\)	]	2.cc\)	]	2.e-\)	]	2.e-\)	.	2.A\	.	2.A\	.	2.f#X/)	]	2.ee-\	]	2.ee-\)	.	2.ff#X\)	>]	2.ccc\	.	2.ccc\	.
!	!	!	!	!	!	!	!LO:TX:t=P:problem=kreska taktowa podwójna	!LO:TX:t=P:problem=kreska taktowa podwójna	!	!LO:TX:t=P:problem=kreska taktowa podwójna	!	!	!LO:TX:t=P:problem=kreska taktowa podwójna	!	!	!	!	!	!	!	!	!	!	!	!	!	!	!	!	!	!	!	!	!	!	!	!	!	!	!	!	!	!	!	!	!	!
4r;	.	.	.	.	.	.	.	4r;	.	4r;	.	.	4r	.	.	.	.	.	.	.	.	.	.	4r;	.	4r;	.	4r;	.	4r;	.	4r;	.	4r;	.	4r;	.	4r;	.	4r	.	4r;	.	4r;	.	4r;	.
!	!	!	!	!	!	!	!	!LO:LB:g=original	!	!	!	!	!	!	!	!	!	!	!	!	!	!	!	!	!	!	!	!	!	!	!	!	!	!LO:LB:g=original	!	!	!	!	!	!LO:LB:g=original	!	!LO:LB:g=original	!	!	!	!	!
=11	=11	=11	=11	=11	=11	=11	=11	=11	=11	=11	=11	=11	=11	=11	=11	=11	=11	=11	=11	=11	=11	=11	=11	=11	=11	=11	=11	=11	=11	=11	=11	=11	=11	=11	=11	=11	=11	=11	=11	=11	=11	=11	=11	=11	=11	=11	=11
!	!	!	!	!	!	!	!	!	!LO:DY:b	!	!	!	!	!	!	!LO:TX:a:t=1	!	!LO:TX:a:t=1	!	!LO:TX:a:t=1	!	!LO:TX:a:t=1	!	!	!LO:DY:t=po	!	!LO:DY:rj:t=po	!	!LO:DY:rj	!	!LO:DY:t=po	!	!	!	!	!	!LO:DY:rj	!	!LO:DY:t=po	!	!	!	!LO:DY:rj	!	!LO:DY:rj	!	!LO:DY:t=po
(4C\	pp <	1ryy	1ryy	.	0r;	.	0r;	1c	pp	1f#X	San-	.	1ee-	san-	.	1r	.	1r	.	1r	.	1r	.	(1cc	p <	(1cc	p <	1A	pp <	(1f#X	p <	(4C\	pp <	4C\	pp <	1a	pp <	(1ee-	p <	1ee-	pp <	(1ff#X	pp <[	(1ff#X	pp <	(1eee-	p <
4E-\	.	.	.	.	.	.	.	.	.	.	.	.	.	.	.	.	.	.	.	.	.	.	.	.	.	.	.	.	.	.	.	4E-\	.	4E-\	.	.	.	.	.	.	.	.	.	.	.	.	.
4A\	[ >	.	.	.	.	.	.	.	.	.	.	.	.	.	.	.	.	.	.	.	.	.	.	.	.	.	.	.	.	.	.	4A\	[ >	4A\	[ >	.	[ >	.	.	.	[ >	.	.	.	[ >	.	[ >
!LO:TX:a:t=Baso	!	!	!	!	!	!	!	!	!	!	!	!	!	!	!	!	!	!	!	!	!	!	!	!	!	!	!	!	!	!	!	!	!	!	!	!	!	!	!	!	!	!	!	!	!	!	!
4c\)	]]	.	.	.	.	.	.	.	.	.	.	.	.	.	.	.	.	.	.	.	.	.	.	.	[ >	.	[ >	.	[ >	.	[ >	4c\)	]	4c\	]	.	]]	.	[ >	.	.	.	.	.	]]	.	]]
!	!	!	!	!	!	!	!	!	!	!	!	!	!LO:LB:g=original	!	!	!	!	!	!	!	!	!	!	!	!	!	!	!	!	!	!	!	!	!	!	!LO:LB:g=original	!	!	!	!	!	!	!	!LO:LB:g=original	!	!LO:LB:g=original	!
=12	=12	=12	=12	=12	=12	=12	=12	=12	=12	=12	=12	=12	=12	=12	=12	=12	=12	=12	=12	=12	=12	=12	=12	=12	=12	=12	=12	=12	=12	=12	=12	=12	=12	=12	=12	=12	=12	=12	=12	=12	=12	=12	=12	=12	=12	=12	=12
!	!	!	!	!	!	!	!	!	!	!	!	!	!	!	!	!	!	!	!	!	!	!	!	!	!	!	!	!LO:N:vis=2	!	!	!	!	!	!	!	!	!	!	!	!	!	!	!	!LO:TX:t=P:problem=brak zakończenia łuku	!	!	!
2.Bn\	.	1ryy	1ryy	.	.	.	.	2.Bn\	.	2.g\	-ctus	.	2.dd;\	-ctus	.	1r;	.	1r;	.	1r;	.	1r;	.	2.dd\)	]	2.dd\)	]	2.G/	]	2.g\)	]	2.Bn\	.	2.Bn\	.	2.d/	.	2.dd\)	]	2.dd\	]	2.gg\)	>]	2.gg\)	.	2.ddd\)	.
!	!	!	!	!	!LO:TX:t=P:problem=kreska taktowa podwójna	!	!LO:TX:t=P:problem=kreska taktowa podwójna	!LO:TX:t=P:problem=kreska taktowa podwójna	!	!	!	!	!LO:TX:t=P:problem=kreska taktowa podwójna	!	!	!	!	!	!	!	!	!	!	!	!	!	!	!	!	!	!	!	!	!	!	!	!	!	!	!	!	!	!	!	!	!	!
4r;	.	.	.	.	.	.	.	4r;	.	4r;	.	.	4r	.	.	.	.	.	.	.	.	.	.	4r;	.	4r;	.	4r;	.	4r;	.	4r;	.	4r;	.	4r;	.	4r;	.	4r;	.	4r;	.	4r	.	4r	.
!	!	!	!	!	!	!	!	!	!	!	!	!	!	!	!	!	!	!	!	!	!	!	!	!	!	!	!	!	!	!	!	!	!	!	!	!	!	!LO:LB:g=original	!	!	!	!	!	!	!	!	!
=13	=13	=13	=13	=13	=13	=13	=13	=13	=13	=13	=13	=13	=13	=13	=13	=13	=13	=13	=13	=13	=13	=13	=13	=13	=13	=13	=13	=13	=13	=13	=13	=13	=13	=13	=13	=13	=13	=13	=13	=13	=13	=13	=13	=13	=13	=13	=13
*	*	*	*	*	*	*	*	*	*	*	*	*	*	*	*	*	*	*	*	*	*	*	*	*	*	*	*	*	*	*	*	*	*	*clefC4	*	*	*	*	*	*	*	*	*	*	*	*	*
!	!LO:DY:rj	!	!	!LO:TX:t=P:problem=brak taktów nr 13-16	!	!	!	!	!	!	!	!	!	!	!	!	!	!	!	!	!LO:DY:rj	!	!	!	!	!	!LO:DY:rj	!	!LO:DY:rj	!	!LO:DY:rj	!	!LO:DY:rj	!	!LO:DY:rj	!	!	!	!	!	!	!	!	!	!LO:DY:rj	!	!LO:DY:rj:t=fo
2E-^<\	ff	1ryy	1ryy	1ryy	00r;	.	00r;	2e- 2E-\	.	2g\	San-	.	2gg\	San-	.	2BB-/	f	2E-^<\	f	2e-^<\	f	2e-^<\	f	2cc^<\	.	2cc^<\	f	2G^/	f	2g^<\	f	2e-^<\	f	2g^<\	f	2g^/	.	2gg^<\	.	2gg^<\	f	2gg^<\	f	2gg^<\	f	2eee-^<\	f
2D^<\	.	.	.	.	.	.	.	2d 2D\	.	2g\	-ctus	.	2ff\	-ctus	.	2r	.	2D^<\	.	2d^<\	f	2d^<\	.	2dd^<\	.	2dd^<\	.	2G^/	.	2g^<\	.	2d^<\	.	2f^<\	.	2g^/	.	2ff^<\	.	2bn^<\	.	2ff^<\	.	2bbn^<\	.	2fff^<\	.
!	!	!	!	!	!	!	!	!	!	!LO:LB:g=original	!	!	!	!	!	!	!	!	!	!	!	!	!	!	!	!	!	!	!	!	!	!LO:LB:g=original	!	!	!	!	!	!	!	!	!	!	!	!	!	!	!
=14	=14	=14	=14	=14	=14	=14	=14	=14	=14	=14	=14	=14	=14	=14	=14	=14	=14	=14	=14	=14	=14	=14	=14	=14	=14	=14	=14	=14	=14	=14	=14	=14	=14	=14	=14	=14	=14	=14	=14	=14	=14	=14	=14	=14	=14	=14	=14
.	.	.	.	.	.	.	.	.	.	.	.	.	8qff/	.	.	.	.	.	.	.	.	.	.	.	.	.	.	.	.	.	.	.	.	8qf/	.	.	.	8qff/	.	.	.	8qff/	.	.	.	8qfff/	.
(4.C^</	.	1ryy	1ryy	1ryy	.	.	.	4.c 4.C\	.	4.g\	Do-	.	4.ee-\	Do-	.	4.BB-/	.	(4.C^</	.	(4.c^<\	.	(4.c^<\	.	(4.ee-^<\	.	(4.ee-^<\	.	(4.G^/	.	4.g^<\	.	(4.c^<\	.	(4.e-^<\	.	4.g^/	.	4.ee-^<\	.	4.cc^<\	.	4.ee-^<\	.	4.ccc^<\	.	4.eee-^<\	.
8AA/)	.	.	.	.	.	.	.	8A 8AA/	.	8g-X\	-mi-	.	8ee-\	-mi-	.	8BB-/	.	8AA/)	.	8A\)	.	8A/)	.	8cc\)	.	8cc\)	.	8e-\)	.	8g-X\	.	8A\)	.	8c\)	.	8g-X/	.	8ee-\	.	8cc\	.	8ee-\	.	8ccc\	.	8eee-\	.
2BB-^</	.	.	.	.	.	.	.	2B- 2BB-\	.	2f\	-nus	.	2dd\	-nus	.	2FF/	.	2BB-/	.	2B-^<\	.	2B-^/	.	2dd^<\	.	2dd^<\	.	2B-^/	.	2f^<\	.	2B-^<\	.	2d^<\	.	2f^/	.	2dd^<\	.	2b-^<\	.	2dd^<\	.	2ff^<\	.	2ddd^<\	.
!	!	!	!	!	!	!	!	!	!	!	!	!	!	!	!	!	!	!	!	!	!	!	!	!LO:LB:g=original	!	!LO:LB:g=original	!	!LO:LB:g=original	!	!LO:LB:g=original	!	!	!	!	!	!	!	!	!	!	!	!	!	!	!	!	!
=15	=15	=15	=15	=15	=15	=15	=15	=15	=15	=15	=15	=15	=15	=15	=15	=15	=15	=15	=15	=15	=15	=15	=15	=15	=15	=15	=15	=15	=15	=15	=15	=15	=15	=15	=15	=15	=15	=15	=15	=15	=15	=15	=15	=15	=15	=15	=15
*^	*	*	*	*	*	*	*	*	*	*	*	*	*	*	*	*	*	*	*	*	*	*	*	*	*	*	*	*	*	*	*	*	*	*	*	*	*	*	*	*	*	*	*	*	*	*	*
*	*Xtremolo	*	*	*	*	*	*	*	*	*	*	*	*	*	*	*	*	*	*	*	*	*	*	*	*	*	*	*	*	*	*	*	*	*	*	*	*	*	*	*	*	*	*	*	*	*	*	*
!	!	!	!	!	!	!	!	!	!	!	!	!	!	!	!	!	!LO:TX:a:t=1	!	!LO:TX:a:t=1	!	!LO:TX:a:t=1	!	!LO:TX:a:t=1	!	!LO:TX:a:t=1	!	!LO:TX:a:t=1	!	!	!LO:DY:t=po	!	!LO:DY:t=po	!	!	!	!	!	!LO:DY:t=po	!	!LO:DY:t=po	!	!LO:DY:t=po	!	!	!	!	!	!
(2F/	8FF/L	.	1ryy	1ryy	1ryy	.	.	.	4F\	.	4f\	De-	.	4cc\	De-	.	1r	.	1r	.	1r	.	1r	.	1r	.	1r	.	[1f	p	[1f	p	(4A\	.	(4c\	.	4a\	p	4cc\	p	4a\	p	4cc\	.	(4aa\	.	(4ccc\	.
!	!	!	!	!	!	!	!	!	!	!	!	!	!	!	!	!	!	!	!	!	!	!	!	!	!	!	!	!	!	!	!	!	!	!LO:DY:t=po	!	!	!	!	!	!	!	!	!	!	!	!LO:DY:t=po	!	!LO:DY:t=po
.	8FF/	.	.	.	.	.	.	.	.	.	.	.	.	.	.	.	.	.	.	.	.	.	.	.	.	.	.	.	.	.	.	.	.	p	.	.	.	.	.	.	.	.	.	.	.	p	.	p
.	8FF/	.	.	.	.	.	.	.	4F\	.	4f\	-us	.	4dd\	-us	.	.	.	.	.	.	.	.	.	.	.	.	.	.	.	.	.	4B-\	.	4d\	.	4b-\	.	4dd\	.	4b-\	.	4dd\	.	4bb-\	.	4ddd\	.
.	8FF/J	.	.	.	.	.	.	.	.	.	.	.	.	.	.	.	.	.	.	.	.	.	.	.	.	.	.	.	.	.	.	.	.	.	.	.	.	.	.	.	.	.	.	.	.	.	.	.
*	*tremolo	*	*	*	*	*	*	*	*	*	*	*	*	*	*	*	*	*	*	*	*	*	*	*	*	*	*	*	*	*	*	*	*	*	*	*	*	*	*	*	*	*	*	*	*	*	*	*
.	.	.	.	.	.	.	.	.	.	.	.	.	.	8qqff/	.	.	.	.	.	.	.	.	.	.	.	.	.	.	.	.	.	.	8qd/	.	8qf/	.	8qdd/	.	8qff/	.	8qdd/	.	8qff/	.	8qddd/	>	8qfff/	>
4.A/	8FF\L	.	.	.	.	.	.	.	4.A\	.	4.f\	Sa-	.	4.ee-\	sa-	.	.	.	.	.	.	.	.	.	.	.	.	.	.	.	.	.	4.c\	.	4e-\	.	(4.cc^<\	.	(4.ee-^<\	.	4.cc\	.	4.ee-^<\	.	4.ccc\	.	4.eee-\	.
.	8FF\	.	.	.	.	.	.	.	.	.	.	.	.	.	.	.	.	.	.	.	.	.	.	.	.	.	.	.	.	.	.	.	.	.	.	.	.	.	.	.	.	.	.	.	.	.	.	.
.	8FF\	.	.	.	.	.	.	.	.	.	.	.	.	.	.	.	.	.	.	.	.	.	.	.	.	.	.	.	.	.	.	.	.	.	4d\)	.	.	.	.	.	.	.	.	.	.	.	.	.
8B-/)	8FF\J	.	.	.	.	.	.	.	8B-\	.	8f\	-ba-	.	8dd\	-ba-	.	.	.	.	.	.	.	.	.	.	.	.	.	.	.	.	.	8B-\)	.	.	.	8b-\)	.	8dd\)	.	8b-^<\	.	8dd\	.	8bb-\)	]	8ddd\)	]
!LO:LB:g=original	!LO:LB:g=original	!	!	!	!	!	!	!	!	!	!	!	!	!	!	!	!	!	!	!	!	!	!	!	!	!	!	!	!	!	!	!	!	!	!	!	!	!	!	!	!	!	!	!	!	!	!	!
=16	=16	=16	=16	=16	=16	=16	=16	=16	=16	=16	=16	=16	=16	=16	=16	=16	=16	=16	=16	=16	=16	=16	=16	=16	=16	=16	=16	=16	=16	=16	=16	=16	=16	=16	=16	=16	=16	=16	=16	=16	=16	=16	=16	=16	=16	=16	=16	=16
*Xtremolo	*tremolo	*	*	*	*	*	*	*	*	*	*	*	*	*	*	*	*	*	*	*	*	*	*	*	*	*	*	*	*	*	*	*	*	*	*	*	*	*	*	*	*	*	*	*	*	*	*	*
!	!	!	!	!	!	!	!	!	!	!	!	!LO:MO:mod=-oth	!	!	!LO:MO:mod=-oth	!	!	!	!	!	!	!	!	!	!	!LO:DY:t=po	!	!	!	!	!	!	!	!LO:DY:t=po	!	!	!	!	!	!	!	!	!	!	!	!	!	!
8F/L	8FF\L	.	1ryy	1ryy	1ryy	.	.	.	2.F\	.	2f\	-oht	.	2dd\	-ot,	.	1r;	.	1r;	.	1r;	.	1r;	.	(2b-\	p	(2dd\	.	2f\]	.	2f\]	.	(2f\	p	(2f\	.	(2b-\	.	(2dd\	.	(2b-\	.	(2dd\	.	(2bb-\	.	(2ddd\	.
8F/	8FF\	.	.	.	.	.	.	.	.	.	.	.	.	.	.	.	.	.	.	.	.	.	.	.	.	.	.	.	.	.	.	.	.	.	.	.	.	.	.	.	.	.	.	.	.	.	.	.
8F/	8FF\	.	.	.	.	.	.	.	.	.	.	.	.	.	.	.	.	.	.	.	.	.	.	.	.	.	.	.	.	.	.	.	.	.	.	.	.	.	.	.	.	.	.	.	.	.	.	.
8F/J	8FF\J	.	.	.	.	.	.	.	.	.	.	.	.	.	.	.	.	.	.	.	.	.	.	.	.	.	.	.	.	.	.	.	.	.	.	.	.	.	.	.	.	.	.	.	.	.	.	.
*	*Xtremolo	*	*	*	*	*	*	*	*	*	*	*	*	*	*	*	*	*	*	*	*	*	*	*	*	*	*	*	*	*	*	*	*	*	*	*	*	*	*	*	*	*	*	*	*	*	*	*
4F/	4FF\	.	.	.	.	.	.	.	.	.	4f\	.	.	4cc\	.	.	.	.	.	.	.	.	.	.	4f/)	.	4cc\)	.	4f\	.	4f\	.	4F\)	.	4F/)	.	4a\)	.	4cc\)	.	4a\)	.	4cc\)	.	4aa\)	.	4ccc\)	.
!	!	!	!	!	!	!LO:TX:t=P:problem=kreska taktowa podwójna	!	!LO:TX:t=P:problem=kreska taktowa podwójna	!LO:TX:t=P:problem=kreska taktowa podwójna	!	!	!	!	!	!	!	!	!	!	!	!	!	!	!	!	!	!	!	!	!	!	!	!	!	!	!	!	!	!	!	!	!	!	!	!	!	!	!
4r	4ryy	.	.	.	.	.	.	.	4r;	.	4r;	.	.	4r;	.	.	.	.	.	.	.	.	.	.	4r;	.	4r;	.	4r;	.	4r;	.	4r;	.	4r;	.	4r;	.	4r;	.	4r;	.	4r;	.	4r;	.	4r;	.
*v	*v	*	*	*	*	*	*	*	*	*	*	*	*	*	*	*	*	*	*	*	*	*	*	*	*	*	*	*	*	*	*	*	*	*	*	*	*	*	*	*	*	*	*	*	*	*	*	*
!	!	!	!	!	!	!	!	!LO:LB:g=original	!	!	!	!	!	!	!	!	!	!	!	!	!	!LO:LB:g=original	!	!	!	!	!	!	!	!	!	!	!	!LO:LB:g=original	!	!LO:LB:g=original	!	!	!	!	!LO:LB:g=original	!	!LO:LB:g=original	!	!LO:LB:g=original	!LO:LB:g=original	!
=17	=17	=17	=17	=17	=17	=17	=17	=17	=17	=17	=17	=17	=17	=17	=17	=17	=17	=17	=17	=17	=17	=17	=17	=17	=17	=17	=17	=17	=17	=17	=17	=17	=17	=17	=17	=17	=17	=17	=17	=17	=17	=17	=17	=17	=17	=17	=17
*	*	*	*	*	*	*	*	*	*	*^	*	*	*	*	*	*	*	*	*	*	*	*	*	*	*	*	*	*	*	*	*	*	*	*	*	*	*	*	*	*	*	*	*	*	*	*	*
.	.	.	.	.	.	.	.	.	.	.	.	.	.	8qqff/	.	.	.	.	.	.	.	.	.	.	.	.	.	.	.	.	.	.	.	.	.	.	.	.	(<8qff/	.	.	.	8qff/	.	.	.	.	.
!	!LO:DY:t=po	!	!	!LO:TX:a:t=5.	!LO:TX:a:t=5.	!	!LO:TX:a:t=5.	!	!	!	!	!	!	!	!	!	!LO:TX:a:t=3.	!	!LO:TX:a:t=3.	!	!LO:TX:a:t=3.	!	!LO:TX:a:t=3.	!	!	!LO:DY:rj:t=po	!	!LO:DY:t=po	!LO:TX:a:t=3.	!	!LO:TX:a:t=3.	!	!	!LO:DY:t=po	!	!	!LO:TX:b:i:t=dolce	!	!LO:TX:b:i:t=dol	!	!	!	!	!	!LO:TX:a:t=2	!	!LO:TX:a:t=2	!
[1F	p	1ryy	1ryy	00r	00r	.	00r	4F\	.	2c/	2A\	ple-	.	4ee-\	ple-	.	0r	.	0r	.	0r	.	0r	.	[1F	p	[>1f	p	0r	.	0r	.	(2A\	p	(2A\	.	(2cc\	.	4ee-\)	.	(2cc\	.	4ee-\	.	0r	.	0r	.
.	.	.	.	.	.	.	.	8F\	.	.	.	.	.	8ee-\	-ni	.	.	.	.	.	.	.	.	.	.	.	.	.	.	.	.	.	.	.	.	.	.	.	(8ee-\L	.	.	.	8ee-\L	.	.	.	.	.
.	.	.	.	.	.	.	.	8F\	.	.	.	.	.	8ee-\	sunt	.	.	.	.	.	.	.	.	.	.	.	.	.	.	.	.	.	.	.	.	.	.	.	8ee-\J	.	.	.	8ee-\J	.	.	.	.	.
!	!	!	!	!	!	!	!	!	!	!	!	!	!	!LO:LB:g=original	!	!	!	!	!	!	!	!	!	!	!	!	!	!	!	!	!	!	!	!	!	!	!	!	!	!	!	!	!	!	!	!	!	!
!	!	!	!	!	!	!	!	!	!	!	!	!	!	!	!LO:MO:mod=cae-	!	!	!	!	!	!	!	!	!	!	!	!	!	!	!	!	!	!	!	!	!	!	!	!	!	!	!	!	!	!	!	!	!
.	.	.	.	.	.	.	.	4F\	.	2d/	2B-\	-ni	.	8ee-\L	ce-	.	.	.	.	.	.	.	.	.	.	.	.	.	.	.	.	.	2B-\)	.	2B-\)	.	2f\)	.	8ee-\L)	.	2g\)	.	(8ee-\L	.	.	.	.	.
.	.	.	.	.	.	.	.	.	.	.	.	.	.	8dd\J	.	.	.	.	.	.	.	.	.	.	.	.	.	.	.	.	.	.	.	.	.	.	.	.	(8dd\	.	.	.	8dd\	.	.	.	.	.
.	.	.	.	.	.	.	.	8F\	.	.	.	.	.	8cc\	-li	.	.	.	.	.	.	.	.	.	.	.	.	.	.	.	.	.	.	.	.	.	.	.	8cc\	.	.	.	8cc\	.	.	.	.	.
.	.	.	.	.	.	.	.	8F\	.	.	.	.	.	8b-\	et	.	.	.	.	.	.	.	.	.	.	.	.	.	.	.	.	.	.	.	.	.	.	.	8b-\J)	.	.	.	8b-\J)	.	.	.	.	.
*	*	*	*	*	*	*	*	*	*	*v	*v	*	*	*	*	*	*	*	*	*	*	*	*	*	*	*	*	*	*	*	*	*	*	*	*	*	*	*	*	*	*	*	*	*	*	*	*	*
!	!	!	!	!	!	!	!	!	!	!	!	!	!	!	!	!	!	!	!	!	!	!	!	!	!	!	!	!	!	!	!	!	!	!	!	!	!	!LO:LB:g=original	!	!	!	!	!	!	!	!	!
=18	=18	=18	=18	=18	=18	=18	=18	=18	=18	=18	=18	=18	=18	=18	=18	=18	=18	=18	=18	=18	=18	=18	=18	=18	=18	=18	=18	=18	=18	=18	=18	=18	=18	=18	=18	=18	=18	=18	=18	=18	=18	=18	=18	=18	=18	=18	=18
*	*	*	*	*	*	*	*	*	*	*	*	*	*	*	*	*	*	*	*	*	*	*	*	*	*	*	*	*	*	*	*	*	*	*	*	*	*	*	*	*^	*	*	*	*	*	*	*
!	!	!	!	!	!	!	!	!	!	!	!	!	!	!	!	!	!	!	!	!	!	!	!	!	!	!	!	!	!	!	!	!	!	!	!	!	!	!	!	!	!LO:TX:t=P:problem=dolny głos błędnie [prawdopodobnie dopisany z cl II] w tt. 18-19	!	!	!	!	!	!	!
.	.	.	.	.	.	.	.	.	.	8qqf/	.	.	.	.	.	.	.	.	.	.	.	.	.	.	.	.	.	.	.	.	.	8qqf/	.	8qf/	.	.	.	.	.	.	.	.	.	.	.	.	.	.
1F]	.	1ryy	1ryy	.	.	.	.	2F\	.	4e-\	ple-	.	2a\	Ter-	.	.	.	.	.	.	.	.	.	1F_	.	1f_>	.	.	.	.	.	4e-\	.	4e-\	.	(2c/	.	2a\	.	1f	(2d/	.	2a/	.	.	.	.	.
!	!	!	!	!	!	!	!	!	!	!	!	!	!	!	!	!	!	!	!	!	!	!	!	!	!	!	!	!	!	!	!	!	!LO:HP:t=cres	!	!	!	!	!	!	!	!	!	!	!	!	!	!	!
.	.	.	.	.	.	.	.	.	.	8e-\	-ni	.	.	.	.	.	.	.	.	.	.	.	.	.	.	.	.	.	.	.	.	8e-'\L	<	8e-'\L	.	.	.	.	.	.	.	.	.	.	.	.	.	.
.	.	.	.	.	.	.	.	.	.	8e-\	sunt	.	.	.	.	.	.	.	.	.	.	.	.	.	.	.	.	.	.	.	.	8e-'\J	.	8e-'\J	.	.	.	.	.	.	.	.	.	.	.	.	.	.
.	.	.	.	.	.	.	.	2F\	.	8e-\L	Cae-	.	2b-\	-ra	.	.	.	.	.	.	.	.	.	.	.	.	.	.	.	.	.	(8e-\L	.	(8e-\L	.	2f/)	.	2b-\	.	.	2g/)	.	2b-/	.	.	.	.	.
.	.	.	.	.	.	.	.	.	.	8d\J	.	.	.	.	.	.	.	.	.	.	.	.	.	.	.	.	.	.	.	.	.	8d\)	.	8d\)	.	.	.	.	.	.	.	.	.	.	.	.	.	.
.	.	.	.	.	.	.	.	.	.	8c\	-li	.	.	.	.	.	.	.	.	.	.	.	.	.	.	.	.	.	.	.	.	8c'\	.	8c'\	.	.	.	.	.	.	.	.	.	.	.	.	.	.
.	.	.	.	.	.	.	.	.	.	8B-\	et	.	.	.	.	.	.	.	.	.	.	.	.	.	.	.	.	.	.	.	.	8B-'\J	.	8B-'\J	.	.	.	.	.	.	.	.	.	.	.	.	.	.
!	!	!	!	!	!	!	!	!	!	!LO:LB:g=original	!	!	!	!	!	!	!	!	!	!	!	!	!	!	!	!	!	!	!	!	!	!LO:LB:g=original	!	!	!	!	!	!	!	!	!	!	!	!	!	!	!	!
=19	=19	=19	=19	=19	=19	=19	=19	=19	=19	=19	=19	=19	=19	=19	=19	=19	=19	=19	=19	=19	=19	=19	=19	=19	=19	=19	=19	=19	=19	=19	=19	=19	=19	=19	=19	=19	=19	=19	=19	=19	=19	=19	=19	=19	=19	=19	=19	=19
8qF/	.	.	.	.	.	.	.	8qF/	.	.	.	.	.	.	.	.	.	.	.	.	.	.	.	.	.	.	.	.	.	.	.	.	.	.	.	.	.	.	.	.	.	.	.	.	.	.	.	.
4E-^<\	.	1ryy	1ryy	.	.	.	.	4E-\	.	2A\	ter-	.	2ff\	glo-	.	1r	.	1r	.	1r	.	1r	.	(1F]	.	(1f]	.	1r	.	1r	.	2A\	.	2A\	.	2.f/	<	2cc\	.	2a/	2.g/	.	(2.ff\	mf	4r	.	4r	.
!	!	!	!	!	!	!	!	!	!	!	!	!	!	!	!	!	!	!	!	!	!	!	!	!	!	!	!	!	!	!	!	!	!	!	!	!	!	!	!	!	!	!	!	!	!	!LO:DY:rj	!	!
8E-'\L	mf	.	.	.	.	.	.	8E-\	.	.	.	.	.	.	.	.	.	.	.	.	.	.	.	.	.	.	.	.	.	.	.	.	.	.	.	.	.	.	.	.	.	.	.	.	(2ff\	mf <	(2fff\	mf <
8E-'\J	.	.	.	.	.	.	.	8E-\	.	.	.	.	.	.	.	.	.	.	.	.	.	.	.	.	.	.	.	.	.	.	.	.	.	.	.	.	.	.	.	.	.	.	.	.	.	.	.	.
(8E-\L	<	.	.	.	.	.	.	8E-\L	.	8B-\	-ra	.	4ff\	.	.	.	.	.	.	.	.	.	.	.	.	.	.	.	.	.	.	8B-\	.	8B-\	.	.	.	4b-\	<	8ryy	.	.	.	.	.	.	.	.
!	!	!	!	!	!	!	!	!	!	!	!	!	!	!	!	!	!	!	!	!	!	!	!	!	!	!	!	!	!	!	!	!	!	!	!	!	!	!	!	!LO:TX:t=P:problem=dźwięk prawdopodobnie dopisany później	!	!	!	!	!	!	!	!
8D\)	.	.	.	.	.	.	.	8D\J	.	8B-\	glo-	.	.	.	.	.	.	.	.	.	.	.	.	.	.	.	.	.	.	.	.	(8B-\L	<	(8d\L	<	.	.	.	.	8b-\L	.	.	.	.	.	.	.	.
8C'\	[	.	.	.	.	.	.	8C/	.	8c\	-ri-	.	8ee-\L	-ri-	.	.	.	.	.	.	.	.	.	.	.	.	.	.	.	.	.	8c\	.	8e-\	.	(8a\L	.	8ee-\L	[	8cc\	4rcyy	.	8ee-\L	.	8aa\L	.	8eee-\L	.
8BB-'\J	.	.	.	.	.	.	.	8BB-/	.	8d\	-a	.	8dd\J	-a	.	.	.	.	.	.	.	.	.	.	.	.	.	.	.	.	.	8d\J)	[[	8f\J)	[[	8b-\J)	[	8dd\J	.	8dd\J	.	.	8dd\J)	.	8bb-\J)	[	8ddd\J)	[[
*	*	*	*	*	*	*	*	*	*	*	*	*	*	*	*	*	*	*	*	*	*	*	*	*	*	*	*	*	*	*	*	*	*	*	*	*	*	*	*	*v	*v	*	*	*	*	*	*	*
!	!	!	!	!	!	!	!	!	!	!	!	!	!	!	!	!	!	!LO:LB:g=original	!	!LO:LB:g=original	!	!	!	!	!	!	!	!	!	!	!	!	!	!	!	!	!	!	!	!	!	!	!	!	!	!	!
=20	=20	=20	=20	=20	=20	=20	=20	=20	=20	=20	=20	=20	=20	=20	=20	=20	=20	=20	=20	=20	=20	=20	=20	=20	=20	=20	=20	=20	=20	=20	=20	=20	=20	=20	=20	=20	=20	=20	=20	=20	=20	=20	=20	=20	=20	=20	=20
!	!	!	!	!	!	!	!	!	!	!	!	!	!	!	!	!	!	!	!	!	!	!	!	!	!	!	!LO:DY:rj	!	!	!	!	!	!	!	!	!	!	!	!	!	!	!	!	!	!	!	!
(2E-\	sf	1ryy	1ryy	.	.	.	.	2E-\	.	2e-\	tu-	.	2gg\	tu-	.	2BB-/	sf	(2E-\	sf	(2B-\	sf	(2e-\	sf	8B-/)	sf	8b-\)	sf	(2e-\	sf	(2g\	sf	(2B-\	sf	(2g\	sf >	(2b-\	sf	(2gg\	sf	(2b-\	sf >	(2gg^<\	.	(2bb-\	sf	(2ggg\	sf
.	.	.	.	.	.	.	.	.	.	.	.	.	.	.	.	.	.	.	.	.	.	.	.	8r	.	8r	.	.	.	.	.	.	.	.	.	.	.	.	.	.	.	.	.	.	.	.	.
.	.	.	.	.	.	.	.	.	.	.	.	.	.	.	.	.	.	.	.	.	.	.	.	4r	.	4r	.	.	.	.	.	.	.	.	.	.	.	.	.	.	.	.	.	.	.	.	.
8F^<\)	.	.	.	.	.	.	.	4F\	.	4c\	-a	.	4cc\	-a,	.	2r	.	8F^<\)	.	8A^<\)	.	8c^<\)	.	2r	.	2r	.	8f\)	.	8f^<\)	.	8A\)	.	8c\)	]	8a\)	.	8cc\)	.	8a\)	]	8cc\)	.	8aa^<\)	.	8ccc^<\)	.
8r	.	.	.	.	.	.	.	.	.	.	.	.	.	.	.	.	.	8r	.	8r	.	8r	.	.	.	.	.	8r	.	8r	.	8r	.	8r	.	8r	.	8r	.	8r	.	8r	.	8r	.	8r	.
4r	.	.	.	.	.	.	.	4r	.	4r	.	.	8r	.	.	.	.	4r	.	4r	.	4r	.	.	.	.	.	4r	.	4r	.	4r	.	4r	.	4r	.	4r	.	4r	.	4r	.	4r	.	4r	.
.	.	.	.	.	.	.	.	.	.	.	.	.	8dd\	O-	.	.	.	.	.	.	.	.	.	.	.	.	.	.	.	.	.	.	.	.	.	.	.	.	.	.	.	.	.	.	.	.	.
!	!	!	!	!	!	!	!	!LO:LB:g=original	!	!	!	!	!	!	!	!LO:LB:g=original	!	!	!	!	!	!	!	!	!	!	!	!	!	!	!	!	!	!	!	!	!	!	!	!	!	!	!	!	!	!	!
=21	=21	=21	=21	=21	=21	=21	=21	=21	=21	=21	=21	=21	=21	=21	=21	=21	=21	=21	=21	=21	=21	=21	=21	=21	=21	=21	=21	=21	=21	=21	=21	=21	=21	=21	=21	=21	=21	=21	=21	=21	=21	=21	=21	=21	=21	=21	=21
!LO:TX:a:t=1	!	!	!	!	!	!	!	!LO:TX:a:t=1.	!	!LO:TX:a:t=1.	!	!	!	!	!	!LO:TX:a:t=2	!	!LO:TX:a:t=1	!	!LO:TX:a:t=1	!	!LO:TX:a:t=1	!	!LO:TX:a:t=1	!	!LO:TX:a:t=1	!	!LO:TX:a:t=1	!	!LO:TX:a:t=1	!	!LO:TX:a:t=1	!	!LO:TX:a:t=1	!	!LO:TX:a:t=1	!	!LO:TX:a:t=1	!	!LO:TX:a:t=1	!	!LO:TX:a:t=1	!	!	!	!	!
1r	.	1ryy	1ryy	1r	1r	.	1r	1r	.	1r	.	.	4.dd\	-san-	.	0r	.	1r	.	1r	.	1r	.	1r	.	1r	.	1r	.	1r	.	1r	.	1r	.	1r	.	1r	.	1r	.	1r	.	1r	.	1r	.
.	.	.	.	.	.	.	.	.	.	.	.	.	8cc\	.	.	.	.	.	.	.	.	.	.	.	.	.	.	.	.	.	.	.	.	.	.	.	.	.	.	.	.	.	.	.	.	.	.
.	.	.	.	.	.	.	.	.	.	.	.	.	4b-\	-na	.	.	.	.	.	.	.	.	.	.	.	.	.	.	.	.	.	.	.	.	.	.	.	.	.	.	.	.	.	.	.	.	.
.	.	.	.	.	.	.	.	.	.	.	.	.	8r	.	.	.	.	.	.	.	.	.	.	.	.	.	.	.	.	.	.	.	.	.	.	.	.	.	.	.	.	.	.	.	.	.	.
.	.	.	.	.	.	.	.	.	.	.	.	.	8ee-\	o-	.	.	.	.	.	.	.	.	.	.	.	.	.	.	.	.	.	.	.	.	.	.	.	.	.	.	.	.	.	.	.	.	.
!LO:LB:g=original	!	!	!	!	!LO:LB:g=original	!	!	!	!	!	!	!	!LO:LB:g=original	!	!	!	!	!	!	!	!	!	!	!LO:LB:g=original	!	!	!	!	!	!	!	!	!	!LO:LB:g=original	!	!	!	!	!	!	!	!LO:LB:g=original	!	!	!	!	!
=22	=22	=22	=22	=22	=22	=22	=22	=22	=22	=22	=22	=22	=22	=22	=22	=22	=22	=22	=22	=22	=22	=22	=22	=22	=22	=22	=22	=22	=22	=22	=22	=22	=22	=22	=22	=22	=22	=22	=22	=22	=22	=22	=22	=22	=22	=22	=22
*	*	*	*	*	*	*	*	*	*	*	*	*	*	*	*	*	*	*	*	*	*	*	*	*	*	*	*	*	*	*	*	*	*	*clefF4	*	*	*	*	*	*	*	*	*	*	*	*	*
2r	.	1ryy	1ryy	2r	2r	.	2r	2r	.	2r	.	.	4.ee-\	-san-	.	.	.	2r	.	2r	.	2r	.	2r	.	2r	.	2r	.	2r	.	2r	.	2r	.	2r	.	2r	.	2r	.	2r	.	2r	.	2r	.
.	.	.	.	.	.	.	.	.	.	.	.	.	8dd\	.	.	.	.	.	.	.	.	.	.	.	.	.	.	.	.	.	.	.	.	.	.	.	.	.	.	.	.	.	.	.	.	.	.
4r	.	.	.	4r	4r	.	4r	4r	.	4r	.	.	4cc\	-na	.	.	.	4r	.	4r	.	4r	.	4r	.	4r	.	4r	.	4r	.	4r	.	4r	.	4r	.	4r	.	4r	.	4r	.	4r	.	4r	.
8r	.	.	.	8r	8r	.	8.r	8r	.	8r	.	.	8r	.	.	.	.	8r	.	8r	.	8r	.	8r	.	8r	.	8r	.	8r	.	8r	.	8r	.	8r	.	8r	.	8r	.	8r	.	8r	.	8r	.
!	!	!	!	!	!LO:SIC:v:s=16ff\	!LO:DY:b:rj	!	!	!	!	!	!	!	!	!	!	!	!	!	!	!	!	!	!	!LO:DY:t=ffo	!	!	!	!LO:DY:rj	!	!	!	!	!	!LO:DY:t=fo	!	!	!	!	!	!	!	!	!	!LO:DY:t=fo	!	!
8F\	ff	.	.	8f\	8ee-\	ff	.	8F\	.	8f\	ho-	.	8ff\	O-	.	.	.	8F\	ff	8F/	ff	8F/	ff	8f/	ff	8ff\	ff	8f\	f	8f\	ff	8F\	ff	8F\	f	8ff\	ff	8ff\	ff	8ff\	ff	8ff\	.	8ff\	f	8ff\	ff
.	.	.	.	.	.	.	16ff\	.	.	.	.	.	.	.	.	.	.	.	.	.	.	.	.	.	.	.	.	.	.	.	.	.	.	.	.	.	.	.	.	.	.	.	.	.	.	.	.
!	!	!	!	!	!	!	!LO:LB:g=original	!	!	!	!	!	!	!	!	!	!	!	!	!	!	!	!	!	!	!LO:LB:g=original	!	!	!	!	!	!	!	!	!	!LO:LB:g=original	!	!	!	!LO:LB:g=original	!	!	!	!	!	!	!
=23	=23	=23	=23	=23	=23	=23	=23	=23	=23	=23	=23	=23	=23	=23	=23	=23	=23	=23	=23	=23	=23	=23	=23	=23	=23	=23	=23	=23	=23	=23	=23	=23	=23	=23	=23	=23	=23	=23	=23	=23	=23	=23	=23	=23	=23	=23	=23
*	*	*	*	*	*	*	*	*	*	*	*	*	*	*	*	*tremolo	*	*	*	*	*	*	*	*	*	*	*	*	*	*	*	*	*	*	*	*	*	*	*	*	*	*	*	*	*	*	*
!	!	!	!	!	!LO:TX:t=P:problem=nieczytelny zapis dźwięków w takcie[prawdopodobnie błędnie dopisane]; przyjęto zgodnie z vl I	!	!	!	!	!	!	!	!	!	!	!	!LO:DY:rj	!	!	!	!	!	!	!	!	!	!	!	!	!	!	!	!	!LO:N:vis=4.	!	!	!	!	!	!	!	!	!LO:DY:rj	!	!	!	!
4B-'\	.	1ryy	1ryy	4b-\	4bb-\	.	4bb-\	4B-\	.	4b- 4B-\	-san-	.	4bb-\	-san-	.	16FFLL	f	4B-\	.	4B-'\	.	4b-'\	.	4b-'\	.	4bb-'\	.	4B-'/	.	4b-'\	.	4B-\	.	4B-\	.	4b-'\	.	4bb-'\	.	4bb-'\	.	4bb-'\	ff	4bb-'\	.	4bb-'\	.
.	.	.	.	.	.	.	.	.	.	.	.	.	.	.	.	16FF	.	.	.	.	.	.	.	.	.	.	.	.	.	.	.	.	.	.	.	.	.	.	.	.	.	.	.	.	.	.	.
.	.	.	.	.	.	.	.	.	.	.	.	.	.	.	.	16FF	.	.	.	.	.	.	.	.	.	.	.	.	.	.	.	.	.	.	.	.	.	.	.	.	.	.	.	.	.	.	.
.	.	.	.	.	.	.	.	.	.	.	.	.	.	.	.	16FF	.	.	.	.	.	.	.	.	.	.	.	.	.	.	.	.	.	.	.	.	.	.	.	.	.	.	.	.	.	.	.
4F'\	.	.	.	4f\	4ff\	.	4ff\	4F\	.	4f\	-na	.	4ff\	-na	.	16FF	.	4F\	.	4f'\	.	4f'\	.	4f'/	.	4ff'\	.	4f'\	.	4f'\	.	4F\	.	4F\	.	4f'/	.	4ff'\	.	4ff'\	.	4ff'\	.	4fff'\	.	4fff'\	.
.	.	.	.	.	.	.	.	.	.	.	.	.	.	.	.	16FF	.	.	.	.	.	.	.	.	.	.	.	.	.	.	.	.	.	.	.	.	.	.	.	.	.	.	.	.	.	.	.
.	.	.	.	.	.	.	.	.	.	.	.	.	.	.	.	16FF	.	.	.	.	.	.	.	.	.	.	.	.	.	.	.	.	.	.	.	.	.	.	.	.	.	.	.	.	.	.	.
.	.	.	.	.	.	.	.	.	.	.	.	.	.	.	.	16FF	.	.	.	.	.	.	.	.	.	.	.	.	.	.	.	.	.	.	.	.	.	.	.	.	.	.	.	.	.	.	.
4D'\	.	.	.	4d\	4dd\	.	4dd\	4D\	.	4d\	in	.	4dd\	in	.	16FF	.	4D\	.	4d'\	.	4d'\	.	4d'/	.	4dd'\	.	4d'\	.	4d'\	.	4D\	.	4d\	.	4d'/	.	4dd'\	.	4dd'\	.	4dd'\	.	4ddd'\	.	4ddd'\	.
.	.	.	.	.	.	.	.	.	.	.	.	.	.	.	.	16FF	.	.	.	.	.	.	.	.	.	.	.	.	.	.	.	.	.	.	.	.	.	.	.	.	.	.	.	.	.	.	.
.	.	.	.	.	.	.	.	.	.	.	.	.	.	.	.	16FF	.	.	.	.	.	.	.	.	.	.	.	.	.	.	.	.	.	.	.	.	.	.	.	.	.	.	.	.	.	.	.
.	.	.	.	.	.	.	.	.	.	.	.	.	.	.	.	16FF	.	.	.	.	.	.	.	.	.	.	.	.	.	.	.	.	.	.	.	.	.	.	.	.	.	.	.	.	.	.	.
4BB-'\	.	.	.	4B-/	4b-/	.	4b-\	4BB-/	.	4B-\	ex-	.	4b-\	ex-	.	16FF	.	4BB-\	.	4B-'\	.	4B-'\	.	4B-'/	.	4b-'\	.	4B-'\	.	4B-'\	.	4BB-/	.	4B-\	.	4B-'/	.	4b-'\	.	4b-'\	.	4b-'\	.	4bb-'\	.	4bb-'\	.
.	.	.	.	.	.	.	.	.	.	.	.	.	.	.	.	16FF	.	.	.	.	.	.	.	.	.	.	.	.	.	.	.	.	.	.	.	.	.	.	.	.	.	.	.	.	.	.	.
.	.	.	.	.	.	.	.	.	.	.	.	.	.	.	.	16FF	.	.	.	.	.	.	.	.	.	.	.	.	.	.	.	.	.	.	.	.	.	.	.	.	.	.	.	.	.	.	.
.	.	.	.	.	.	.	.	.	.	.	.	.	.	.	.	16FFJJ	.	.	.	.	.	.	.	.	.	.	.	.	.	.	.	.	.	.	.	.	.	.	.	.	.	.	.	.	.	.	.
*	*	*	*	*	*	*	*	*	*	*	*	*	*	*	*	*Xtremolo	*	*	*	*	*	*	*	*	*	*	*	*	*	*	*	*	*	*	*	*	*	*	*	*	*	*	*	*	*	*	*
!	!	!	!	!	!	!	!	!	!	!	!	!	!	!	!	!	!	!	!	!	!	!	!	!	!	!	!	!	!	!	!	!	!	!	!	!	!	!LO:LB:g=original	!	!	!	!	!	!LO:LB:g=original	!	!LO:LB:g=original	!
=24	=24	=24	=24	=24	=24	=24	=24	=24	=24	=24	=24	=24	=24	=24	=24	=24	=24	=24	=24	=24	=24	=24	=24	=24	=24	=24	=24	=24	=24	=24	=24	=24	=24	=24	=24	=24	=24	=24	=24	=24	=24	=24	=24	=24	=24	=24	=24
*	*	*	*	*	*	*	*	*	*	*	*	*	*	*	*	*	*	*	*	*	*	*	*	*	*	*	*	*	*	*	*	*	*	*clefC4	*	*	*	*	*	*	*	*	*	*	*	*	*
!	!	!	!	!	!LO:SIC:v:t=akord błędnie [prawdopodobnie powinien wyglądać jak w vl I]	!	!	!	!	!	!	!	!	!	!	!	!	!	!	!	!	!	!	!	!LO:DY:rj	!	!LO:DY:rj	!	!	!	!	!	!	!LO:N:vis=2.	!	!	!	!	!	!	!	!	!	!	!LO:DY:rj:t=fo	!	!
2E-^<\	sf	1ryy	1ryy	2g-X 2B-/	2gg 2ff-X 2b- 2a 2e-/	.	2gg-X 2b- 2e-/	2.E-\	.	2.e-\	-cel-	.	2.gg-X\	-cel-	.	2BB-/	.	2B-^<\	sf	2B-^<\	sf	2g-X^<\	sf	2B-^/	sf	2b-^<\	sf	2e-^<\	sf	2g-X\	.	2E-\	sf	2g-X\	.	2g-X^/	.	2b-^<\	.	2b-^<\	f	2gg-X^<\	sf	2bb-^<\	f	2ggg-X^<\	sf
2r	.	.	.	2r	2r	.	2r	.	.	.	.	.	.	.	.	2r	.	2r	.	2r	.	2r	.	2r	.	2r	.	2r	.	2r	.	2r	.	2r	.	2r	.	2r	.	2r	.	2r	.	2r	.	2r	.
!	!	!	!	!	!	!	!	!	!	!LO:SIC:t=przedłużenie sylaby "cel"	!	!	!	!	!	!	!	!	!	!	!	!	!	!	!	!	!	!	!	!	!	!	!	!	!	!	!	!	!	!	!	!	!	!	!	!	!
.	.	.	.	.	.	.	.	4F\	.	4d-X\	-sis	.	4ff\	.	.	.	.	.	.	.	.	.	.	.	.	.	.	.	.	.	.	.	.	.	.	.	.	.	.	.	.	.	.	.	.	.	.
!	!	!	!	!	!	!	!	!	!	!LO:LB:g=original	!	!	!	!	!	!	!	!	!	!	!	!	!	!	!	!	!	!LO:LB:g=original	!	!LO:LB:g=original	!	!LO:LB:g=original	!	!	!	!	!	!	!	!	!	!	!	!	!	!	!
=25	=25	=25	=25	=25	=25	=25	=25	=25	=25	=25	=25	=25	=25	=25	=25	=25	=25	=25	=25	=25	=25	=25	=25	=25	=25	=25	=25	=25	=25	=25	=25	=25	=25	=25	=25	=25	=25	=25	=25	=25	=25	=25	=25	=25	=25	=25	=25
!LO:TX:a:t=3.	!	!	!	!LO:TX:a:t=3.	!	!	!LO:TX:a:t=3	!	!	!	!	!	!	!	!	!LO:TX:a:t=3.	!	!LO:TX:a:t=3.	!	!LO:TX:a:t=3.	!	!LO:TX:a:t=3	!	!	!	!	!	!	!	!	!	!	!	!	!	!	!	!	!	!LO:TX:a:t=3.	!	!	!	!	!	!	!
0r	.	1ryy	1ryy	0r	0r	.	0r	2G-X\	.	2c\	sis	.	2ee-\	-sis	.	0r	.	0r	.	0r	.	0r	.	2r	.	2r	.	2r	.	2r	.	2r	.	2r	.	2r	.	2r	.	0r	.	4r	.	2r	.	2r	.
.	.	.	.	.	.	.	.	.	.	.	.	.	.	.	.	.	.	.	.	.	.	.	.	.	.	.	.	.	.	.	.	.	.	.	.	.	.	.	.	.	.	8r	.	.	.	.	.
.	.	.	.	.	.	.	.	.	.	.	.	.	.	.	.	.	.	.	.	.	.	.	.	.	.	.	.	.	.	.	.	.	.	.	.	.	.	.	.	.	.	8bb-\	f	.	.	.	.
!	!	!	!	!	!	!	!	!	!	!	!	!	!	!	!	!	!	!	!	!	!	!	!	!	!LO:DY:rj	!	!	!	!	!	!	!	!	!	!	!	!	!	!	!	!	!LO:TX:b:i:t=Solo	!	!	!	!	!
.	.	.	.	.	.	.	.	4r	.	4r	.	.	4r	.	.	.	.	.	.	.	.	.	.	(2F^/	sf	[2f/	sf >	(2c^/	sf	(2e-\	ff	4r	.	4r	.	4r	.	4r	.	.	.	(8bb-\L	.	4r	.	4r	.
.	.	.	.	.	.	.	.	.	.	.	.	.	.	.	.	.	.	.	.	.	.	.	.	.	.	.	.	.	.	.	.	.	.	.	.	.	.	.	.	.	.	8aa\	.	.	.	.	.
*	*	*	*	*	*	*	*	*	*	*	*	*	*	*	*	*	*	*	*	*	*	*	*	*	*	*	*	*	*	*	*	*	*	*clefF4	*	*	*	*	*	*	*	*	*	*	*	*	*
.	.	.	.	.	.	.	.	8r	.	8r	.	.	8r	.	.	.	.	.	.	.	.	.	.	.	.	.	.	.	.	.	.	8r	.	8r	f	8r	.	8r	.	.	.	8ggn\	.	8r	.	8r	.
.	.	.	.	.	.	.	.	8F\	.	8A\	ho-	.	8ee-\	o-	.	.	.	.	.	.	.	.	.	.	.	.	.	.	.	.	.	8F\	f	(8F\	.	(8a\	.	(8a\	.	.	.	8ff\J)	.	8eee-\	.	8eee-\	f
=26	=26	=26	=26	=26	=26	=26	=26	=26	=26	=26	=26	=26	=26	=26	=26	=26	=26	=26	=26	=26	=26	=26	=26	=26	=26	=26	=26	=26	=26	=26	=26	=26	=26	=26	=26	=26	=26	=26	=26	=26	=26	=26	=26	=26	=26	=26	=26
!	!	!	!	!	!	!	!	!	!	!	!	!	!	!	!	!	!	!	!	!	!	!	!	!	!	!	!	!	!	!	!	!	!	!	!	!	!	!	!	!	!	!	!	!	!	!LO:TX:b:i:rj:t=Solo	!
.	.	1ryy	1ryy	.	.	.	.	8B-\L	.	4B-\	-san-	.	4.dd\	-san-	.	.	.	.	.	.	.	.	.	4B-/)	.	4f/]	]	4B-/)	.	4d\)	.	8B-\L	>	8B-\L	.	4b-\	>	4b-\	>	.	.	(8ff\	.	(2ddd\	.	(2ddd\	>
.	.	.	.	.	.	.	.	8A\J	.	.	.	.	.	.	.	.	.	.	.	.	.	.	.	.	.	.	.	.	.	.	.	8A\	.	8A\	.	.	.	.	.	.	.	8r	.	.	.	.	.
.	.	.	.	.	.	.	.	8Gn\L	.	4Bn\	-na	.	.	.	.	.	.	.	.	.	.	.	.	4r	.	4r	.	4r	.	4r	.	8Gn\	.	8Gn\	.	4bX\	.	4bX\	.	.	.	2gg\	.	.	.	.	.
.	.	.	.	.	.	.	.	8F\J	.	.	.	.	8dd\	-na	.	.	.	.	.	.	.	.	.	.	.	.	.	.	.	.	.	8F\J	.	8F\J	.	.	.	.	.	.	.	.	.	.	.	.	.
!	!	!	!	!	!	!	!	!LO:LB:g=original	!	!	!	!	!	!	!	!	!	!	!	!	!	!	!	!	!	!	!	!	!	!	!	!	!	!	!	!	!	!	!	!	!	!	!	!	!	!	!
.	.	.	.	.	.	.	.	4E-\	.	4c\	in	.	8cc\L	in	.	.	.	.	.	.	.	.	.	2r	.	2r	.	2r	.	2r	.	4E-\	.	4E-\	.	4cc\	]	4cc\	]	.	.	.	.	8ccc\L	.	8ccc\L	.
.	.	.	.	.	.	.	.	.	.	.	.	.	8b-\J	.	.	.	.	.	.	.	.	.	.	.	.	.	.	.	.	.	.	.	]	.	.	.	.	.	.	.	.	.	.	8bb-\	.	8bb-\	.
.	.	.	.	.	.	.	.	4En\	.	4c#X\	ex-	.	8a\L	ex-	.	.	.	.	.	.	.	.	.	.	.	.	.	.	.	.	.	4En\	.	4En\	.	4cc#X\)	.	4cc#X\)	.	.	.	8aa\L	.	8aa\	.	8aa\	]
.	.	.	.	.	.	.	.	.	.	.	.	.	8g\J	.	.	.	.	.	.	.	.	.	.	.	.	.	.	.	.	.	.	.	.	.	.	.	.	.	.	.	.	8bb-\J)	.	8gg\J)	.	8gg\J)	.
!	!	!	!	!	!	!	!	!	!	!	!	!	!LO:LB:g=original	!	!	!	!	!	!	!	!	!	!	!	!	!	!	!	!	!	!	!	!	!LO:LB:g=original	!	!	!	!	!	!	!	!LO:LB:g=original	!	!	!	!	!
=27	=27	=27	=27	=27	=27	=27	=27	=27	=27	=27	=27	=27	=27	=27	=27	=27	=27	=27	=27	=27	=27	=27	=27	=27	=27	=27	=27	=27	=27	=27	=27	=27	=27	=27	=27	=27	=27	=27	=27	=27	=27	=27	=27	=27	=27	=27	=27
!	!	!	!	!	!	!	!	!	!	!	!	!	!	!	!	!	!	!	!	!	!	!	!	!	!	!	!	!	!	!	!	!	!	!	!	!	!	!	!	!	!	!LO:TX:a:B:t=t	!	!	!	!	!
!	!	!	!	!	!	!	!	!	!	!	!	!LO:DY:b:rj:t=p.	!	!	!	!	!	!	!	!	!	!	!	!LO:TX:a:t=1	!	!LO:TX:a:t=1	!	!LO:TX:a:t=1	!	!	!	!	!	!	!	!	!	!	!	!	!	!LO:TX:t=P:problem=niejednoznaczny zapis ozdobnika [przyjęto trillo]	!	!	!	!	!
1r	.	1ryy	1ryy	1r	1r	.	1r	1F	.	2.d\	-cel-	p	2.f/	-cel-	.	1r	.	1r	.	1r	.	1r	.	1r	.	1r	.	1r	.	1r	.	4F\	pp	1F	.	2.f/	.	(2.dd\	pp	1r	.	2.ff\	.	8ff\	.	8ff\	.
!	!	!	!	!	!	!	!	!	!	!	!	!LO:HP:b	!	!	!	!	!	!	!	!	!	!	!	!	!	!	!	!	!	!	!	!	!	!	!	!	!	!	!	!	!	!	!	!	!	!	!
.	.	.	.	.	.	.	.	.	.	.	.	>	.	.	.	.	.	.	.	.	.	.	.	.	.	.	.	.	.	.	.	.	.	.	.	.	.	.	.	.	.	.	.	8r	.	8r	.
.	.	.	.	.	.	.	.	.	.	.	.	.	.	.	.	.	.	.	.	.	.	.	.	.	.	.	.	.	.	.	.	4r	.	.	.	.	.	.	.	.	.	.	.	4r	.	4r	.
.	.	.	.	.	.	.	.	.	.	.	.	.	.	.	.	.	.	.	.	.	.	.	.	.	.	.	.	.	.	.	.	2r	.	.	.	.	.	.	.	.	.	.	.	2r	.	2r	.
.	.	.	.	.	.	.	.	.	.	8c#X\L	.	.	8g/L	.	.	.	.	.	.	.	.	.	.	.	.	.	.	.	.	.	.	.	.	.	.	8eX/L	.	8dd-X\L	.	.	.	(8gg\L	.	.	.	.	.
!	!	!	!	!	!	!	!	!	!	!LO:TX:t=P:problem=kreska taktowa pojedyncza	!	!	!LO:TX:t=P:problem=kreska taktowa pojedyncza	!	!	!LO:TX:t=P:problem=kreska taktowa pojedyncza	!	!LO:TX:t=P:problem=kreska taktowa pojedyncza	!	!LO:TX:t=P:problem=kreska taktowa pojedyncza	!	!	!	!	!	!LO:TX:t=P:problem=kreska taktowa pojedyncza	!	!LO:TX:t=P:problem=kreska taktowa pojedyncza	!	!	!	!	!	!LO:TX:t=P:problem=kreska taktowa pojedyncza	!	!	!	!LO:TX:t=P:problem=kreska taktowa pojedyncza	!	!LO:TX:t=P:problem=kreska taktowa pojedyncza	!	!	!	!	!	!	!
.	.	.	.	.	.	.	.	.	.	8cn\J	.	]	8a/J	.	.	.	.	.	.	.	.	.	.	.	.	.	.	.	.	.	.	.	.	.	.	8e-/J	.	8cc\J)	.	.	.	8aa\J	.	.	.	.	.
!	!	!	!	!	!	!	!	!	!	!	!	!	!	!	!	!	!	!LO:LB:g=original	!	!LO:LB:g=original	!	!LO:PB:g=original	!	!LO:LB:g=original	!	!	!	!	!	!	!	!	!	!	!	!	!	!	!	!	!	!	!	!	!	!	!
=28||	=28||	=28||	=28||	=28||	=28||	=28||	=28||	=28||	=28||	=28||	=28||	=28||	=28||	=28||	=28||	=28||	=28||	=28||	=28||	=28||	=28||	=28||	=28||	=28||	=28||	=28||	=28||	=28||	=28||	=28||	=28||	=28||	=28||	=28||	=28||	=28||	=28||	=28||	=28||	=28||	=28||	=28||	=28||	=28||	=28||	=28||	=28||
*clefF4	*	*	*	*	*	*	*	*	*	*	*	*	*	*	*	*	*	*clefF4	*	*clefC4	*	*clefC3	*	*	*	*	*	*clefG2	*	*clefG2	*	*clefF4	*	*clefF4	*	*clefG2	*	*clefG2	*	*clefG2	*	*clefG2	*	*	*	*	*
*k[b-e-a-]	*	*	*	*k[b-e-a-]	*	*	*k[b-e-a-]	*	*	*	*	*	*	*	*	*	*	*k[b-e-a-]	*	*k[b-e-a-]	*	*k[b-e-a-]	*	*	*	*	*	*k[b-e-a-]	*	*k[b-e-a-]	*	*k[b-e-a-]	*	*k[b-e-a-]	*	*k[b-e-a-]	*	*k[b-e-a-]	*	*k[b-e-a-]	*	*k[b-e-a-]	*	*	*	*	*
*M4/4	*	*	*	*	*	*	*M4/4	*	*	*	*	*	*	*	*	*	*	*M4/4	*	*M4/4	*	*M4/4	*	*	*	*	*	*M4/4	*	*M4/4	*	*M4/4	*	*M4/4	*	*M4/4	*	*M4/4	*	*M4/4	*	*M4/4	*	*	*	*	*
*met(c)	*	*	*	*	*	*	*met(C.)	*	*	*	*	*	*	*	*	*	*	*met(c)	*	*met(c)	*	*met(c)	*	*	*	*	*	*met(c)	*	*met(c)	*	*met(c)	*	*met(c)	*	*met(c)	*	*met(c)	*	*met(c)	*	*met(c)	*	*	*	*	*
*	*	*	*	*	*^	*	*	*	*	*	*	*	*	*	*	*	*	*	*	*	*	*	*	*	*	*	*	*	*	*	*	*	*	*	*	*	*	*	*	*	*	*	*	*	*	*	*
!	!	!	!	!	!LO:SIC:v:t=górny głos błędnie w t. 28	!	!	!	!	!	!	!	!	!	!	!	!	!	!	!	!	!	!	!	!	!	!	!	!	!	!	!	!	!	!	!	!	!	!	!	!	!	!	!	!	!	!	!
!LO:TX:t=P:problem=zmiana tonacji w połowie taktu	!	!	!	!	!	!LO:TX:t=P:problem=brak zmiany tonacji	!	!	!	!	!	!	!	!	!	!	!	!	!LO:TX:t=P:problem=zmiana tonacji w połowie taktu	!	!LO:TX:t=P:problem=zmiana tonacji w połowie taktu	!	!LO:TX:t=P:problem=zmiana tonacji w połowie taktu	!	!	!	!	!	!	!	!	!	!LO:TX:t=P:problem=zmiana tonacji w połowie taktu	!	!LO:TX:t=P:problem=zmiana tonacji w połowie taktu	!	!LO:TX:t=P:problem=zmiana tonacji w połowie taktu	!	!LO:TX:t=P:problem=zmiana tonacji w połowie taktu	!	!LO:TX:t=P:problem=zmiana tonacji w połowie taktu	!	!LO:TX:t=P:problem=zmiana tonacji w połowie taktu	!	!	!	!	!
!LO:TX:a:i:t=Allo Maestoſo.	!	!	!	!LO:TX:a:i:rj:t=Allo maesto&colon;	!LO:TX:a:i:rj:t=Allo Maestoso	!	!	!LO:TX:a:i:t=Allo Maestoso	!	!	!	!	!	!	!	!	!LO:TX:a:t=1	!	!LO:TX:a:i:t=Allo Maestoso.	!	!LO:TX:a:i:t=Allo Maestoso.	!	!	!	!LO:TX:a:i:t=Allo Maestoso. Tazet.	!	!	!	!	!	!LO:TX:a:i:t=Allo Maestoso.	!	!	!	!	!	!	!	!	!	!	!	!	!	!LO:TX:a:i:t=Allo Maestoso Tazet	!	!LO:TX:a:i:t=Allo Maestoso \nTacet	!
2BB-/	.	1ryy	1ryy	2B-/	2a/	4B-/	.	4B-/	2BB-/	.	2B-\	-sis	.	2b-\	-sis.	.	1r	.	2BB-/	f	2B-\	.	2B-\	.	1ryy	.	2r	.	4r	.	4r	.	2BB-/	.	2BB-/)	.	8d/	.	8b-\	.	4r	.	8bb-\)	.	1ryy	.	1ryy	.
.	.	.	.	.	.	.	.	.	.	.	.	.	.	.	.	.	.	.	.	.	.	.	.	.	.	.	.	.	.	.	.	.	.	.	.	.	8r	.	8r	.	.	.	8r	.	.	.	.	.
!	!	!	!	!	!	!	!	!	!	!	!	!	!	!	!	!	!	!	!	!	!	!	!	!	!	!	!	!	!	!	!	!	!	!	!	!	!	!	!	!	!	!	!LO:TX:a:i:t=Cherubini	!	!	!	!	!
.	.	.	.	.	.	16B-/LL	.	16B-/LL	.	.	.	.	.	.	.	.	.	.	.	.	.	.	.	.	.	.	.	.	4r	.	4r	.	.	.	.	.	4r	.	4r	.	4r	.	4r	.	.	.	.	.
.	.	.	.	.	.	16An/	.	16An/	.	.	.	.	.	.	.	.	.	.	.	.	.	.	.	.	.	.	.	.	.	.	.	.	.	.	.	.	.	.	.	.	.	.	.	.	.	.	.	.
.	.	.	.	.	.	16B-/	.	16B-/	.	.	.	.	.	.	.	.	.	.	.	.	.	.	.	.	.	.	.	.	.	.	.	.	.	.	.	.	.	.	.	.	.	.	.	.	.	.	.	.
!	!	!	!	!	!	!	!	!	!	!	!	!	!	!	!	!	!	!	!LO:TX:t=P:problem=kreska taktowa podwójna	!	!LO:TX:t=P:problem=kreska taktowa podwójna	!	!LO:TX:t=P:problem=kreska taktowa podwójna	!	!	!	!	!	!LO:TX:t=P:problem=kreska taktowa podwójna	!	!	!	!	!	!LO:TX:t=P:problem=kreska taktowa podwójna	!	!LO:TX:t=P:problem=kreska taktowa podwójna	!	!LO:TX:t=P:problem=kreska taktowa podwójna	!	!LO:TX:t=P:problem=kreska taktowa podwójna	!	!LO:TX:t=P:problem=kreska taktowa podwójna	!	!	!	!	!
.	.	.	.	.	.	16A/JJ	.	16A/JJ	.	.	.	.	.	.	.	.	.	.	.	.	.	.	.	.	.	.	.	.	.	.	.	.	.	.	.	.	.	.	.	.	.	.	.	.	.	.	.	.
!	!	!	!	!	!	!	!	!	!	!	!	!	!	!	!	!	!	!	!	!	!	!	!	!	!	!	!	!	!	!	!	!	!	!	!	!	!LO:LB:g=original	!	!LO:LB:g=original	!	!LO:LB:g=original	!	!LO:LB:g=original	!	!	!	!	!
!	!	!	!	!	!LO:N:vis=2	!	!	!	!	!	!	!	!	!	!	!	!	!	!	!	!	!	!LO:TX:a:i:t=Allo Maeſtoso.	!	!	!	!	!	!LO:TX:a:i:t=Aalo Maestoso.	!	!	!	!LO:TX:a:i:t=Allo Maestoso.	!	!LO:TX:a:i:t=Allo Maestoso.	!	!LO:TX:a:i:t=Allo Maestoso.	!	!LO:TX:a:i:t=Allo Maestoso.	!	!LO:TX:a:i:t=Allo Maestoso	!	!LO:TX:a:i:t=Allo Maestoso	!	!	!	!	!
2BB-/	.	.	.	2B-/	4.a/	4B-/	.	4B-/	2r	.	2r	.	.	2r	.	.	.	.	2BB-/	.	2B-\	.	2B-/	.	.	.	4r	.	4r	.	4r	.	2BB-/	.	2BB-/	.	4r	.	4r	.	4r	.	4r	.	.	.	.	.
!	!	!	!	!	!	!	!	!	!	!	!	!	!	!	!	!	!	!	!	!	!	!	!	!	!	!	!LO:TX:t=P:problem=kreska taktowa podwójna	!	!	!	!	!	!	!	!	!	!	!	!	!	!	!	!	!	!	!	!	!
.	.	.	.	.	.	16B-/LL	.	16B-/LL	.	.	.	.	.	.	.	.	.	.	.	.	.	.	.	.	.	.	4r	.	4r	.	4r	.	.	.	.	.	4r	.	4r	.	4r	.	4r	.	.	.	.	.
.	.	.	.	.	.	16A/	.	16A/	.	.	.	.	.	.	.	.	.	.	.	.	.	.	.	.	.	.	.	.	.	.	.	.	.	.	.	.	.	.	.	.	.	.	.	.	.	.	.	.
!	!	!	!	!	!LO:N:vis=4	!	!	!	!	!	!	!	!	!	!	!	!	!	!	!	!	!	!	!	!	!	!	!	!	!	!	!	!	!	!	!	!	!	!	!	!	!	!	!	!	!	!	!
.	.	.	.	.	8a/	16B-/	.	16B-/	.	.	.	.	.	.	.	.	.	.	.	.	.	.	.	.	.	.	.	.	.	.	.	.	.	.	.	.	.	.	.	.	.	.	.	.	.	.	.	.
.	.	.	.	.	.	16A/JJ	.	16A/JJ	.	.	.	.	.	.	.	.	.	.	.	.	.	.	.	.	.	.	.	.	.	.	.	.	.	.	.	.	.	.	.	.	.	.	.	.	.	.	.	.
!	!	!	!	!	!	!	!	!	!LO:TX:t=P:problem=kreska taktowa pojedyncza	!	!	!	!	!	!	!	!LO:TX:t=P:problem=kreska taktowa podwójna	!	!	!	!	!	!	!	!	!	!	!	!	!	!	!	!	!	!	!	!	!	!	!	!	!	!	!	!	!	!	!
*	*	*	*	*	*v	*v	*	*	*	*	*	*	*	*	*	*	*	*	*	*	*	*	*	*	*	*	*	*	*	*	*	*	*	*	*	*	*	*	*	*	*	*	*	*	*	*	*	*
!	!	!	!	!	!	!	!	!	!	!	!	!	!	!	!	!	!	!	!	!	!	!	!	!	!	!LO:LB:g=original	!	!	!	!	!	!LO:LB:g=original	!	!	!	!	!	!	!	!	!	!	!	!	!	!	!
=29	=29	=29	=29	=29	=29	=29	=29	=29	=29	=29	=29	=29	=29	=29	=29	=29	=29	=29	=29	=29	=29	=29	=29	=29	=29	=29	=29	=29	=29	=29	=29	=29	=29	=29	=29	=29	=29	=29	=29	=29	=29	=29	=29	=29	=29	=29	=29
*	*	*	*	*	*	*	*	*	*	*	*	*	*k[b-e-a-]	*	*	*	*	*	*	*	*	*	*	*	*	*	*	*	*	*	*	*	*	*	*	*	*	*	*	*	*	*	*	*	*	*	*
*	*	*	*	*	*	*	*	*	*	*	*	*	*M4/4	*	*	*	*	*	*	*	*	*	*	*	*	*	*	*	*	*	*	*	*	*	*	*	*	*	*	*	*	*	*	*	*	*	*
*	*	*	*	*	*	*	*	*	*	*	*	*	*met(C.)	*	*	*	*	*	*	*	*	*	*	*	*	*	*	*	*	*	*	*	*	*	*	*	*	*	*	*	*	*	*	*	*	*	*
!	!	!	!	!	!	!	!	!	!	!	!	!	!LO:TX:t=P:problem=znaki b- ee- a-	!	!	!	!	!	!	!	!	!	!	!	!	!	!	!	!	!	!	!	!	!	!	!	!	!	!	!	!	!	!	!	!	!	!
!	!	!	!	!	!	!	!	!LO:TX:b:t=19.	!	!LO:TX:a:t=19.	!	!	!	!	!	!LO:TX:a:i:t=Allo Maestoso \nTazet	!	!	!	!	!	!	!	!	!	!LO:TX:a:i:t=Allo Maeſtoso Tazet	!	!	!	!	!	!	!	!	!	!	!	!	!	!	!	!	!	!	!	!	!
4BB-/	.	1ryy	1ryy	4B-/	4B-/	.	4B-/	00r	.	1r	.	.	2b-;\	San-	.	1ryy	.	4BB-/	.	4B-\	.	4B-/	.	1ryy	.	1ryy	.	1r;	.	1r;	.	4BB-/	.	4BB-/	.	1r;	.	1r;	.	1r;	.	1r;	.	1ryy	.	1ryy	.
!	!	!	!	!	!LO:TX:t=P:problem=fermata nad dwiema pauzami	!	!	!	!	!	!	!	!	!	!	!	!	!	!	!	!	!	!	!	!	!	!	!	!	!	!	!	!	!	!	!	!	!	!	!	!	!	!	!	!	!	!
4r;	.	.	.	4r;	4r;	.	4r;	.	.	.	.	.	.	.	.	.	.	4r;	.	4r;	.	4r;	.	.	.	.	.	.	.	.	.	4r;	.	4r;	.	.	.	.	.	.	.	.	.	.	.	.	.
2r	.	.	.	2r	2r	.	2r	.	.	.	.	.	4f/	-ctus	.	.	.	2r	.	2r	.	2r	.	.	.	.	.	.	.	.	.	2r	.	2r	.	.	.	.	.	.	.	.	.	.	.	.	.
!	!	!	!	!LO:TX:t=P:problem=kreska taktowa podwójna	!	!	!	!	!	!	!	!	!	!	!	!	!	!	!	!	!	!	!	!	!	!	!	!	!	!	!	!	!	!	!	!	!	!	!	!	!	!	!	!	!	!	!
.	.	.	.	.	.	.	.	.	.	.	.	.	4r	.	.	.	.	.	.	.	.	.	.	.	.	.	.	.	.	.	.	.	.	.	.	.	.	.	.	.	.	.	.	.	.	.	.
!LO:LB:g=original	!	!	!	!LO:LB:g=original	!	!	!	!	!	!	!	!	!	!	!	!	!	!	!	!	!	!	!	!	!	!	!	!	!	!	!	!	!	!	!	!	!	!	!	!	!	!	!	!	!	!	!
=30	=30	=30	=30	=30	=30	=30	=30	=30	=30	=30	=30	=30	=30	=30	=30	=30	=30	=30	=30	=30	=30	=30	=30	=30	=30	=30	=30	=30	=30	=30	=30	=30	=30	=30	=30	=30	=30	=30	=30	=30	=30	=30	=30	=30	=30	=30	=30
*	*	*	*	*	*^	*	*	*	*	*	*	*	*	*	*	*	*	*	*	*	*	*	*	*	*	*	*	*	*	*	*	*	*	*	*	*	*	*	*	*	*	*	*	*	*	*	*
!	!	!	!	!	!LO:SIC:v:t=górny głos błędnie w t. 30	!	!	!	!	!	!	!	!	!LO:TX:a:t=1.	!	!	!	!	!	!LO:DY:rj	!	!	!	!	!	!	!	!	!LO:TX:a:t=1	!	!LO:TX:a:t=1	!	!	!	!	!	!LO:TX:a:t=1	!	!	!	!LO:TX:a:t=1	!	!LO:TX:a:t=1	!	!	!	!	!
2BB-/	f	1ryy	1ryy	2F/	2e-/	4B-/	.	4d/	.	.	1r	.	.	1r	.	.	1ryy	.	2BB-/	f	2B-\	f	2B-/	f	1ryy	.	1ryy	.	1r	.	1r	.	2F\	f	2d\	.	1r	.	1r	.	1r	.	1r	.	1ryy	.	1ryy	.
.	.	.	.	.	.	16B-/LL	.	16d/LL	.	.	.	.	.	.	.	.	.	.	.	.	.	.	.	.	.	.	.	.	.	.	.	.	.	.	.	.	.	.	.	.	.	.	.	.	.	.	.	.
.	.	.	.	.	.	16An/	.	16c#X/	.	.	.	.	.	.	.	.	.	.	.	.	.	.	.	.	.	.	.	.	.	.	.	.	.	.	.	.	.	.	.	.	.	.	.	.	.	.	.	.
.	.	.	.	.	.	16B-/	.	16d/	.	.	.	.	.	.	.	.	.	.	.	.	.	.	.	.	.	.	.	.	.	.	.	.	.	.	.	.	.	.	.	.	.	.	.	.	.	.	.	.
.	.	.	.	.	.	16A/JJ	.	16c#/JJ	.	.	.	.	.	.	.	.	.	.	.	.	.	.	.	.	.	.	.	.	.	.	.	.	.	.	.	.	.	.	.	.	.	.	.	.	.	.	.	.
!	!	!	!	!	!	!	!	!LO:LB:g=original	!	!	!	!	!	!	!	!	!	!	!	!	!	!	!	!	!	!	!	!	!	!	!	!	!	!	!	!	!	!	!	!	!	!	!	!	!	!	!	!
2BB-/	.	.	.	2F/	2e-/	4B-/	.	4d/	.	.	.	.	.	.	.	.	.	.	2BB-/	.	2B-\	.	2B-/	.	.	.	.	.	.	.	.	.	2F\	.	2d\	.	.	.	.	.	.	.	.	.	.	.	.	.
.	.	.	.	.	.	16B-/LL	.	16d/LL	.	.	.	.	.	.	.	.	.	.	.	.	.	.	.	.	.	.	.	.	.	.	.	.	.	.	.	.	.	.	.	.	.	.	.	.	.	.	.	.
.	.	.	.	.	.	16A/	.	16c#X/	.	.	.	.	.	.	.	.	.	.	.	.	.	.	.	.	.	.	.	.	.	.	.	.	.	.	.	.	.	.	.	.	.	.	.	.	.	.	.	.
.	.	.	.	.	.	16B-/	.	16d/	.	.	.	.	.	.	.	.	.	.	.	.	.	.	.	.	.	.	.	.	.	.	.	.	.	.	.	.	.	.	.	.	.	.	.	.	.	.	.	.
.	.	.	.	.	.	16A/JJ	.	16c#/JJ	.	.	.	.	.	.	.	.	.	.	.	.	.	.	.	.	.	.	.	.	.	.	.	.	.	.	.	.	.	.	.	.	.	.	.	.	.	.	.	.
*	*	*	*	*	*v	*v	*	*	*	*	*	*	*	*	*	*	*	*	*	*	*	*	*	*	*	*	*	*	*	*	*	*	*	*	*	*	*	*	*	*	*	*	*	*	*	*	*	*
!	!	!	!	!	!LO:LB:g=original	!	!	!	!	!	!	!	!	!	!	!	!	!	!	!	!	!	!	!	!	!	!	!	!	!	!	!	!	!	!	!	!	!	!	!	!	!	!	!	!	!	!
=31	=31	=31	=31	=31	=31	=31	=31	=31	=31	=31	=31	=31	=31	=31	=31	=31	=31	=31	=31	=31	=31	=31	=31	=31	=31	=31	=31	=31	=31	=31	=31	=31	=31	=31	=31	=31	=31	=31	=31	=31	=31	=31	=31	=31	=31	=31	=31
4BB-/	.	1ryy	1ryy	4F/	4B-/	.	4d/	.	.	1r	.	.	2dd;\	San-	.	1ryy	.	4BB-/	.	4B-\	.	4B-/	.	1ryy	.	1ryy	.	1r;	.	1r;	.	4F\	.	4d\	.	1r;	.	1r;	.	1r;	.	1r;	.	1ryy	.	1ryy	.
!	!	!	!	!LO:TX:t=P:problem=fermata nad dwiema pauzami	!LO:TX:t=P:problem=fermata nad dwiema pauzami	!	!	!	!	!	!	!	!	!	!	!	!	!	!	!	!	!	!	!	!	!	!	!	!	!	!	!	!	!	!	!	!	!	!	!	!	!	!	!	!	!	!
4r;	.	.	.	4r;	4r;	.	2r;	.	.	.	.	.	.	.	.	.	.	4r;	.	4r;	.	4r;	.	.	.	.	.	.	.	.	.	4r;	.	4r;	.	.	.	.	.	.	.	.	.	.	.	.	.
2r	.	.	.	2r	2r	.	.	.	.	.	.	.	4b-\	-ctus	.	.	.	2r	.	2r	.	2r	.	.	.	.	.	.	.	.	.	2r	.	2r	.	.	.	.	.	.	.	.	.	.	.	.	.
.	.	.	.	.	.	.	4r	.	.	.	.	.	4r	.	.	.	.	.	.	.	.	.	.	.	.	.	.	.	.	.	.	.	.	.	.	.	.	.	.	.	.	.	.	.	.	.	.
=32	=32	=32	=32	=32	=32	=32	=32	=32	=32	=32	=32	=32	=32	=32	=32	=32	=32	=32	=32	=32	=32	=32	=32	=32	=32	=32	=32	=32	=32	=32	=32	=32	=32	=32	=32	=32	=32	=32	=32	=32	=32	=32	=32	=32	=32	=32	=32
!	!	!	!	!	!	!	!	!	!	!	!	!	!LO:TX:a:t=1.	!	!	!	!	!	!	!	!	!	!	!	!	!	!	!LO:TX:a:t=1	!	!LO:TX:a:t=1	!	!	!	!	!	!	!	!	!	!LO:TX:a:t=1	!	!LO:TX:a:t=1	!	!	!	!	!
2BB-/	f	1ryy	1ryy	2A-X/	4d/	.	4f/	.	.	1r	.	.	1r	.	.	1ryy	.	2BB-/	f	2F/	f	2d\	f	1ryy	.	1ryy	.	1r	.	1r	.	2A-X\	.	2f\	.	1r	.	1r	.	1r	.	1r	.	1ryy	.	1ryy	.
.	.	.	.	.	16d/LL	.	16f/LL	.	.	.	.	.	.	.	.	.	.	.	.	.	.	.	.	.	.	.	.	.	.	.	.	.	.	.	.	.	.	.	.	.	.	.	.	.	.	.	.
.	.	.	.	.	16c#X/	.	16en/	.	.	.	.	.	.	.	.	.	.	.	.	.	.	.	.	.	.	.	.	.	.	.	.	.	.	.	.	.	.	.	.	.	.	.	.	.	.	.	.
.	.	.	.	.	16d/	.	16f/	.	.	.	.	.	.	.	.	.	.	.	.	.	.	.	.	.	.	.	.	.	.	.	.	.	.	.	.	.	.	.	.	.	.	.	.	.	.	.	.
.	.	.	.	.	16c#/JJ	.	16e/JJ	.	.	.	.	.	.	.	.	.	.	.	.	.	.	.	.	.	.	.	.	.	.	.	.	.	.	.	.	.	.	.	.	.	.	.	.	.	.	.	.
2BB-/	.	.	.	2A-/	4d/	.	4f/	.	.	.	.	.	.	.	.	.	.	2BB-/	.	2F/	.	2d\	.	.	.	.	.	.	.	.	.	2A-\	.	2f\	.	.	.	.	.	.	.	.	.	.	.	.	.
.	.	.	.	.	16d/LL	.	16f/LL	.	.	.	.	.	.	.	.	.	.	.	.	.	.	.	.	.	.	.	.	.	.	.	.	.	.	.	.	.	.	.	.	.	.	.	.	.	.	.	.
.	.	.	.	.	16c#/	.	16e/	.	.	.	.	.	.	.	.	.	.	.	.	.	.	.	.	.	.	.	.	.	.	.	.	.	.	.	.	.	.	.	.	.	.	.	.	.	.	.	.
.	.	.	.	.	16d/	.	16f/	.	.	.	.	.	.	.	.	.	.	.	.	.	.	.	.	.	.	.	.	.	.	.	.	.	.	.	.	.	.	.	.	.	.	.	.	.	.	.	.
.	.	.	.	.	16c#/JJ	.	16e/JJ	.	.	.	.	.	.	.	.	.	.	.	.	.	.	.	.	.	.	.	.	.	.	.	.	.	.	.	.	.	.	.	.	.	.	.	.	.	.	.	.
!	!	!	!	!	!	!	!	!	!	!	!	!	!LO:LB:g=original	!	!	!	!	!LO:LB:g=original	!	!	!	!	!	!	!	!	!	!	!	!	!	!	!	!LO:LB:g=original	!	!	!	!	!	!	!	!	!	!	!	!	!
=33	=33	=33	=33	=33	=33	=33	=33	=33	=33	=33	=33	=33	=33	=33	=33	=33	=33	=33	=33	=33	=33	=33	=33	=33	=33	=33	=33	=33	=33	=33	=33	=33	=33	=33	=33	=33	=33	=33	=33	=33	=33	=33	=33	=33	=33	=33	=33
!	!	!	!	!	!	!	!	!	!	!	!	!	!	!	!	!	!	!LO:TX:t=P:problem=brak taktu	!	!	!	!	!	!	!	!	!	!	!	!	!	!	!	!	!	!	!	!	!	!	!	!	!	!	!	!	!
4BB-/	.	1ryy	1ryy	4A-X/	4d/	.	4f/	00r	.	1r	.	.	4r	.	.	1ryy	.	1ryy	.	4F/	.	4d\	.	1ryy	.	1ryy	.	1r;	.	1r;	.	4A-X\	.	4f\	.	1r;	.	1r;	.	1r;	.	1r;	.	1ryy	.	1ryy	.
!	!	!	!	!LO:TX:t=P:problem=fermata nad dwiema pauzami	!LO:TX:t=P:problem=fermata nad dwiema pauzami	!	!	!	!	!	!	!	!	!	!	!	!	!	!	!	!	!	!	!	!	!	!	!	!	!	!	!	!	!	!	!	!	!	!	!	!	!	!	!	!	!	!
4r;	.	.	.	4r;	4r;	.	2r;	.	.	.	.	.	2ff 2dd;\	san-	.	.	.	.	.	4r;	.	4r;	.	.	.	.	.	.	.	.	.	4r;	.	4r;	.	.	.	.	.	.	.	.	.	.	.	.	.
2r	.	.	.	2r	2r	.	.	.	.	.	.	.	.	.	.	.	.	.	.	2r	.	2r	.	.	.	.	.	.	.	.	.	2r	.	2r	.	.	.	.	.	.	.	.	.	.	.	.	.
.	.	.	.	.	.	.	4r	.	.	.	.	.	4dd\	-ctus	.	.	.	.	.	.	.	.	.	.	.	.	.	.	.	.	.	.	.	.	.	.	.	.	.	.	.	.	.	.	.	.	.
!	!	!	!	!	!	!	!	!	!	!	!	!	!	!	!	!	!	!	!	!LO:LB:g=original	!	!LO:LB:g=original	!	!	!	!	!	!	!	!	!	!	!	!	!	!	!	!	!	!	!	!	!	!	!	!	!
=34	=34	=34	=34	=34	=34	=34	=34	=34	=34	=34	=34	=34	=34	=34	=34	=34	=34	=34	=34	=34	=34	=34	=34	=34	=34	=34	=34	=34	=34	=34	=34	=34	=34	=34	=34	=34	=34	=34	=34	=34	=34	=34	=34	=34	=34	=34	=34
!	!LO:DY:rj:t=Piu pp	!	!	!	!	!	!LO:TX:a:i:t=Grave a tempo.	!	!	!	!	!	!	!	!	!	!	!LO:TX:a:t=5.	!	!LO:TX:a:t=5.	!	!LO:TX:a:t=5.	!	!	!	!	!	!LO:TX:a:t=5.	!	!LO:TX:a:t=5.	!	!LO:TX:a:t=5.	!	!LO:TX:a:t=5.	!	!LO:TX:a:t=1	!	!LO:TX:a:t=5.	!	!LO:TX:a:t=5	!	!LO:TX:a:t=5.	!	!	!	!	!
4r	pp	1ryy	1ryy	4r	4r	.	4r	.	.	1r	.	.	4b-\	Do-	.	1ryy	.	00r	.	00r	.	00r	.	1ryy	.	1ryy	.	00r	.	00r	.	00r	.	00r	.	1r	.	00r	.	00r	.	00r	.	1ryy	.	1ryy	.
8BB-/	.	.	.	8d\	8A-X/	.	8f/	.	.	.	.	.	8.a-X\	-mi-	.	.	.	.	.	.	.	.	.	.	.	.	.	.	.	.	.	.	.	.	.	.	.	.	.	.	.	.	.	.	.	.	.
8r	.	.	.	8r	8r	.	8r	.	.	.	.	.	.	.	.	.	.	.	.	.	.	.	.	.	.	.	.	.	.	.	.	.	.	.	.	.	.	.	.	.	.	.	.	.	.	.	.
.	.	.	.	.	.	.	.	.	.	.	.	.	16a-\	-nus	.	.	.	.	.	.	.	.	.	.	.	.	.	.	.	.	.	.	.	.	.	.	.	.	.	.	.	.	.	.	.	.	.
8BB-/	.	.	.	8d\	8A-/	.	8f/	.	.	.	.	.	8.a-\L	De-	.	.	.	.	.	.	.	.	.	.	.	.	.	.	.	.	.	.	.	.	.	.	.	.	.	.	.	.	.	.	.	.	.
8r	.	.	.	8r	8r	.	8r	.	.	.	.	.	.	.	.	.	.	.	.	.	.	.	.	.	.	.	.	.	.	.	.	.	.	.	.	.	.	.	.	.	.	.	.	.	.	.	.
.	.	.	.	.	.	.	.	.	.	.	.	.	32b-\LL	.	.	.	.	.	.	.	.	.	.	.	.	.	.	.	.	.	.	.	.	.	.	.	.	.	.	.	.	.	.	.	.	.	.
.	.	.	.	.	.	.	.	.	.	.	.	.	32cc\JJJ	.	.	.	.	.	.	.	.	.	.	.	.	.	.	.	.	.	.	.	.	.	.	.	.	.	.	.	.	.	.	.	.	.	.
8BB-/	.	.	.	8d\	8A-/	.	8f/	.	.	.	.	.	8.b-\	.	.	.	.	.	.	.	.	.	.	.	.	.	.	.	.	.	.	.	.	.	.	.	.	.	.	.	.	.	.	.	.	.	.
8r	.	.	.	8r	8r	.	8r	.	.	.	.	.	.	.	.	.	.	.	.	.	.	.	.	.	.	.	.	.	.	.	.	.	.	.	.	.	.	.	.	.	.	.	.	.	.	.	.
.	.	.	.	.	.	.	.	.	.	.	.	.	16a-\	-us	.	.	.	.	.	.	.	.	.	.	.	.	.	.	.	.	.	.	.	.	.	.	.	.	.	.	.	.	.	.	.	.	.
!	!	!	!	!	!	!	!LO:LB:g=original	!	!	!	!	!	!	!	!	!	!	!	!	!	!	!	!	!	!	!	!	!	!	!	!	!	!	!	!	!	!	!	!	!	!	!	!	!	!	!	!
=35	=35	=35	=35	=35	=35	=35	=35	=35	=35	=35	=35	=35	=35	=35	=35	=35	=35	=35	=35	=35	=35	=35	=35	=35	=35	=35	=35	=35	=35	=35	=35	=35	=35	=35	=35	=35	=35	=35	=35	=35	=35	=35	=35	=35	=35	=35	=35
!	!	!	!	!	!	!	!	!	!	!	!	!	!	!	!	!	!	!	!	!	!	!	!	!	!	!	!	!	!	!	!	!	!	!	!	!LO:TX:a:t=4	!	!	!	!	!	!	!	!	!	!	!
4r	.	1ryy	1ryy	4r	4r	.	4r	.	.	1r	.	.	8.a-\	sa-	.	1ryy	.	.	.	.	.	.	.	1ryy	.	1ryy	.	.	.	.	.	.	.	.	.	00r	.	.	.	.	.	.	.	1ryy	.	1ryy	.
.	.	.	.	.	.	.	.	.	.	.	.	.	16g\	-ba-	.	.	.	.	.	.	.	.	.	.	.	.	.	.	.	.	.	.	.	.	.	.	.	.	.	.	.	.	.	.	.	.	.
!	!	!	!	!	!	!	!	!	!	!	!	!	!	!LO:MO:mod=-oth	!	!	!	!	!	!	!	!	!	!	!	!	!	!	!	!	!	!	!	!	!	!	!	!	!	!	!	!	!	!	!	!	!
8BBn/	.	.	.	8d\	8G/	.	8f/	.	.	.	.	.	4g\	-ot,	.	.	.	.	.	.	.	.	.	.	.	.	.	.	.	.	.	.	.	.	.	.	.	.	.	.	.	.	.	.	.	.	.
8r	.	.	.	8r	8r	.	8r	.	.	.	.	.	.	.	.	.	.	.	.	.	.	.	.	.	.	.	.	.	.	.	.	.	.	.	.	.	.	.	.	.	.	.	.	.	.	.	.
8BB/	.	.	.	8d\	8G/	.	8f/	.	.	.	.	.	4r	.	.	.	.	.	.	.	.	.	.	.	.	.	.	.	.	.	.	.	.	.	.	.	.	.	.	.	.	.	.	.	.	.	.
8r	.	.	.	8r	8r	.	8r	.	.	.	.	.	.	.	.	.	.	.	.	.	.	.	.	.	.	.	.	.	.	.	.	.	.	.	.	.	.	.	.	.	.	.	.	.	.	.	.
8BB/	.	.	.	8d\	8G/	.	8f/	.	.	.	.	.	8g\	ple-	.	.	.	.	.	.	.	.	.	.	.	.	.	.	.	.	.	.	.	.	.	.	.	.	.	.	.	.	.	.	.	.	.
8r	.	.	.	8r	8r	.	8r	.	.	.	.	.	8g\	-ni	.	.	.	.	.	.	.	.	.	.	.	.	.	.	.	.	.	.	.	.	.	.	.	.	.	.	.	.	.	.	.	.	.
!LO:LB:g=original	!	!	!	!LO:LB:g=original	!LO:LB:g=original	!	!	!	!	!	!	!	!	!	!	!	!	!	!	!	!	!	!	!	!	!	!	!	!	!	!	!	!	!	!	!	!	!	!	!	!	!	!	!	!	!	!
=36	=36	=36	=36	=36	=36	=36	=36	=36	=36	=36	=36	=36	=36	=36	=36	=36	=36	=36	=36	=36	=36	=36	=36	=36	=36	=36	=36	=36	=36	=36	=36	=36	=36	=36	=36	=36	=36	=36	=36	=36	=36	=36	=36	=36	=36	=36	=36
4r	.	1ryy	1ryy	4r	4r	.	4r	.	.	1r	.	.	2ee-\	sunt	.	1ryy	.	.	.	.	.	.	.	1ryy	.	1ryy	.	.	.	.	.	.	.	.	.	.	.	.	.	.	.	.	.	1ryy	.	1ryy	.
4C/	.	.	.	4c\	4G/	.	4e-/	.	.	.	.	.	.	.	.	.	.	.	.	.	.	.	.	.	.	.	.	.	.	.	.	.	.	.	.	.	.	.	.	.	.	.	.	.	.	.	.
!	!	!	!	!	!	!	!	!	!	!	!	!	!LO:LB:g=original	!	!	!	!	!	!	!	!	!	!	!	!	!	!	!	!	!	!	!	!	!	!	!	!	!	!	!	!	!	!	!	!	!	!
.	.	.	.	.	.	.	.	.	.	.	.	.	8qee-/	.	.	.	.	.	.	.	.	.	.	.	.	.	.	.	.	.	.	.	.	.	.	.	.	.	.	.	.	.	.	.	.	.	.
4r	.	.	.	4r	4r	.	4r	.	.	.	.	.	4dd-X\	ce-	.	.	.	.	.	.	.	.	.	.	.	.	.	.	.	.	.	.	.	.	.	.	.	.	.	.	.	.	.	.	.	.	.
!	!	!	!	!	!LO:SIC:v:s=4A-/	!	!	!	!	!	!	!	!	!	!	!	!	!	!	!	!	!	!	!	!	!	!	!	!	!	!	!	!	!	!	!	!	!	!	!	!	!	!	!	!	!	!
4F\	.	.	.	4d-X\	4A/	.	4d-X/	.	.	.	.	.	8.dd-\	-li	.	.	.	.	.	.	.	.	.	.	.	.	.	.	.	.	.	.	.	.	.	.	.	.	.	.	.	.	.	.	.	.	.
.	.	.	.	.	.	.	.	.	.	.	.	.	16dd-\	et	.	.	.	.	.	.	.	.	.	.	.	.	.	.	.	.	.	.	.	.	.	.	.	.	.	.	.	.	.	.	.	.	.
=37	=37	=37	=37	=37	=37	=37	=37	=37	=37	=37	=37	=37	=37	=37	=37	=37	=37	=37	=37	=37	=37	=37	=37	=37	=37	=37	=37	=37	=37	=37	=37	=37	=37	=37	=37	=37	=37	=37	=37	=37	=37	=37	=37	=37	=37	=37	=37
4r	.	1ryy	1ryy	4r	4r	.	4r	00r	.	1r	.	.	8.dd-X\L	Ter-	.	1ryy	.	.	.	.	.	.	.	1ryy	.	1ryy	.	.	.	.	.	.	.	.	.	.	.	.	.	.	.	.	.	1ryy	.	1ryy	.
.	.	.	.	.	.	.	.	.	.	.	.	.	16cc\Jk	.	.	.	.	.	.	.	.	.	.	.	.	.	.	.	.	.	.	.	.	.	.	.	.	.	.	.	.	.	.	.	.	.	.
8En\	.	.	.	8G/	8B-/	.	8c/	.	.	.	.	.	4cc\	-ra	.	.	.	.	.	.	.	.	.	.	.	.	.	.	.	.	.	.	.	.	.	.	.	.	.	.	.	.	.	.	.	.	.
8r	.	.	.	8r	8r	.	8r	.	.	.	.	.	.	.	.	.	.	.	.	.	.	.	.	.	.	.	.	.	.	.	.	.	.	.	.	.	.	.	.	.	.	.	.	.	.	.	.
8E\	.	.	.	8G/	8B-/	.	8c/	.	.	.	.	.	4r	.	.	.	.	.	.	.	.	.	.	.	.	.	.	.	.	.	.	.	.	.	.	.	.	.	.	.	.	.	.	.	.	.	.
8r	.	.	.	8r	8r	.	8r	.	.	.	.	.	.	.	.	.	.	.	.	.	.	.	.	.	.	.	.	.	.	.	.	.	.	.	.	.	.	.	.	.	.	.	.	.	.	.	.
8E\	.	.	.	8G/	8B-/	.	8c/	.	.	.	.	.	8cc\	ple-	.	.	.	.	.	.	.	.	.	.	.	.	.	.	.	.	.	.	.	.	.	.	.	.	.	.	.	.	.	.	.	.	.
8r	.	.	.	8r	8r	.	8r	.	.	.	.	.	8b-\	-ni	.	.	.	.	.	.	.	.	.	.	.	.	.	.	.	.	.	.	.	.	.	.	.	.	.	.	.	.	.	.	.	.	.
=38	=38	=38	=38	=38	=38	=38	=38	=38	=38	=38	=38	=38	=38	=38	=38	=38	=38	=38	=38	=38	=38	=38	=38	=38	=38	=38	=38	=38	=38	=38	=38	=38	=38	=38	=38	=38	=38	=38	=38	=38	=38	=38	=38	=38	=38	=38	=38
4r	.	1ryy	1ryy	4r	4r	.	4r	.	.	1r	.	.	2a-\	sunt	.	1ryy	.	1r	.	1r	.	1r	.	1ryy	.	1ryy	.	1r	.	1r	.	1r	.	1r	.	.	.	1r	.	1r	.	1r	.	1ryy	.	1ryy	.
!	!	!	!	!	!LO:SIC:v:s=8A-/	!	!	!	!	!	!	!	!	!	!	!	!	!	!	!	!	!	!	!	!	!	!	!	!	!	!	!	!	!	!	!	!	!	!	!	!	!	!	!	!	!	!
8F\	.	.	.	8F/	8A/	.	8c/	.	.	.	.	.	.	.	.	.	.	.	.	.	.	.	.	.	.	.	.	.	.	.	.	.	.	.	.	.	.	.	.	.	.	.	.	.	.	.	.
8r	.	.	.	8r	8r	.	8r	.	.	.	.	.	.	.	.	.	.	.	.	.	.	.	.	.	.	.	.	.	.	.	.	.	.	.	.	.	.	.	.	.	.	.	.	.	.	.	.
!	!	!	!	!	!LO:SIC:v:s=8A-/	!	!	!	!	!	!	!	!	!	!	!	!	!	!	!	!	!	!	!	!	!	!	!	!	!	!	!	!	!	!	!	!	!	!	!	!	!	!	!	!	!	!
8F\	.	.	.	8F/	8A/	.	8c/	.	.	.	.	.	4cc\	glo-	.	.	.	.	.	.	.	.	.	.	.	.	.	.	.	.	.	.	.	.	.	.	.	.	.	.	.	.	.	.	.	.	.
8r	.	.	.	8r	8r	.	8r	.	.	.	.	.	.	.	.	.	.	.	.	.	.	.	.	.	.	.	.	.	.	.	.	.	.	.	.	.	.	.	.	.	.	.	.	.	.	.	.
!	!	!	!	!	!LO:SIC:v:s=8A-/	!	!	!	!	!	!	!	!	!	!	!	!	!	!	!	!	!	!	!	!	!	!	!	!	!	!	!	!	!	!	!	!	!	!	!	!	!	!	!	!	!	!
8F\	.	.	.	8F/	8A/	.	8c/	.	.	.	.	.	8.ff\	-ri-	.	.	.	.	.	.	.	.	.	.	.	.	.	.	.	.	.	.	.	.	.	.	.	.	.	.	.	.	.	.	.	.	.
8r	.	.	.	8r	8r	.	8r	.	.	.	.	.	.	.	.	.	.	.	.	.	.	.	.	.	.	.	.	.	.	.	.	.	.	.	.	.	.	.	.	.	.	.	.	.	.	.	.
.	.	.	.	.	.	.	.	.	.	.	.	.	16ee-\	-a	.	.	.	.	.	.	.	.	.	.	.	.	.	.	.	.	.	.	.	.	.	.	.	.	.	.	.	.	.	.	.	.	.
!	!	!	!	!	!	!	!	!	!	!	!	!	!	!	!	!	!	!	!	!	!	!	!	!	!	!	!	!LO:LB:g=original	!	!LO:LB:g=original	!	!	!	!	!	!	!	!	!	!	!	!	!	!	!	!	!
=39	=39	=39	=39	=39	=39	=39	=39	=39	=39	=39	=39	=39	=39	=39	=39	=39	=39	=39	=39	=39	=39	=39	=39	=39	=39	=39	=39	=39	=39	=39	=39	=39	=39	=39	=39	=39	=39	=39	=39	=39	=39	=39	=39	=39	=39	=39	=39
4r	.	1ryy	1ryy	4r	4r	.	4r	.	.	1r	.	.	4ee-\	tu-	.	1ryy	.	4r	.	4r	.	4r	.	1ryy	.	1ryy	.	4r	f	4r	.	4r	.	4r	.	4r	.	4r	.	4r	.	4r	.	1ryy	.	1ryy	.
!	!	!	!	!	!LO:SIC:v:s=2A-/	!	!	!	!	!	!	!	!	!	!	!	!	!	!	!	!	!	!	!	!	!	!	!	!	!	!	!	!	!	!LO:DY:rj	!	!	!	!	!	!	!	!LO:DY:t=fo	!	!	!	!
4BB-/	f	.	.	2F/	2A/	.	4d/	.	.	.	.	.	4ddn\	-a	.	.	.	2BB-/	.	2F/	.	[2d\	f	.	.	.	.	[2B-/	.	2f\	.	[2F\	f	2A-\	f	[2dd\	f	[2aa-\	f	[2a-/	f	[2ff\	f	.	.	.	.
4BB-/	.	.	.	.	.	.	16d/LL	.	.	.	.	.	4r	.	.	.	.	.	.	.	.	.	.	.	.	.	.	.	.	.	.	.	.	.	.	.	.	.	.	.	.	.	.	.	.	.	.
.	.	.	.	.	.	.	16f/	.	.	.	.	.	.	.	.	.	.	.	.	.	.	.	.	.	.	.	.	.	.	.	.	.	.	.	.	.	.	.	.	.	.	.	.	.	.	.	.
.	.	.	.	.	.	.	16a-/	.	.	.	.	.	.	.	.	.	.	.	.	.	.	.	.	.	.	.	.	.	.	.	.	.	.	.	.	.	.	.	.	.	.	.	.	.	.	.	.
.	.	.	.	.	.	.	16cc/JJ	.	.	.	.	.	.	.	.	.	.	.	.	.	.	.	.	.	.	.	.	.	.	.	.	.	.	.	.	.	.	.	.	.	.	.	.	.	.	.	.
!	!	!	!	!	!LO:SIC:v:s=4A-/	!	!	!	!	!	!	!	!	!	!	!	!	!	!	!	!	!	!	!	!	!	!	!	!	!	!	!	!	!	!	!	!	!	!	!	!	!	!	!	!	!	!
4BB-/	.	.	.	4F/	4A/	.	16a-/LL	.	.	.	.	.	8r	.	.	.	.	8BB-/	.	8F/	.	8d\]	.	.	.	.	.	8B-/]	.	8f\	.	8F\]	.	8A-\	.	8dd\]	.	8aa-\]	.	8a-/]	.	8ff\]	.	.	.	.	.
.	.	.	.	.	.	.	16f/	.	.	.	.	.	.	.	.	.	.	.	.	.	.	.	.	.	.	.	.	.	.	.	.	.	.	.	.	.	.	.	.	.	.	.	.	.	.	.	.
.	.	.	.	.	.	.	16d/	.	.	.	.	.	8b-\	o-	.	.	.	8r	.	8r	.	8r	.	.	.	.	.	8r	.	8r	.	8r	.	8r	.	8r	.	8r	.	8r	.	8r	.	.	.	.	.
.	.	.	.	.	.	.	16B-/JJ	.	.	.	.	.	.	.	.	.	.	.	.	.	.	.	.	.	.	.	.	.	.	.	.	.	.	.	.	.	.	.	.	.	.	.	.	.	.	.	.
!	!	!	!	!	!	!	!LO:LB:g=original	!	!	!	!	!	!LO:LB:g=original	!	!	!	!	!	!	!	!	!	!	!	!	!	!	!	!	!	!	!LO:LB:g=original	!	!	!	!LO:LB:g=original	!	!	!	!LO:LB:g=original	!	!LO:LB:g=original	!	!	!	!	!
=40	=40	=40	=40	=40	=40	=40	=40	=40	=40	=40	=40	=40	=40	=40	=40	=40	=40	=40	=40	=40	=40	=40	=40	=40	=40	=40	=40	=40	=40	=40	=40	=40	=40	=40	=40	=40	=40	=40	=40	=40	=40	=40	=40	=40	=40	=40	=40
!	!	!	!	!	!	!LO:DY:b:rj	!	!	!	!	!	!	!	!	!	!	!	!LO:TX:a:t=5.	!	!LO:TX:a:t=5.	!	!LO:TX:a:t=5.	!	!	!	!	!	!LO:TX:a:t=5.	!	!LO:TX:a:t=5.	!	!LO:TX:a:t=5.	!	!LO:TX:a:t=5.	!	!LO:TX:a:t=5.	!	!LO:TX:a:t=5.	!	!LO:TX:a:t=5	!	!LO:TX:a:t=5	!	!	!	!	!
8BB-/	pp	1ryy	1ryy	8B-/	8G/	p	8e-/	.	.	1r	.	.	8b-\L	-san-	.	1ryy	.	00r	.	00r	.	00r	.	1ryy	.	1ryy	.	00r	.	00r	.	00r	.	00r	.	00r	.	00r	.	00r	.	00r	.	1ryy	.	1ryy	.
8r	.	.	.	8r	8r	.	8r	.	.	.	.	.	8g\J	.	.	.	.	.	.	.	.	.	.	.	.	.	.	.	.	.	.	.	.	.	.	.	.	.	.	.	.	.	.	.	.	.	.
8BB-/	.	.	.	8B-/	8G/	.	8e-/	.	.	.	.	.	8b-\L	-na	.	.	.	.	.	.	.	.	.	.	.	.	.	.	.	.	.	.	.	.	.	.	.	.	.	.	.	.	.	.	.	.	.
8r	.	.	.	8r	8r	.	8r	.	.	.	.	.	8ee-\J	.	.	.	.	.	.	.	.	.	.	.	.	.	.	.	.	.	.	.	.	.	.	.	.	.	.	.	.	.	.	.	.	.	.
8BB-/	.	.	.	8B-/	8G/	.	8e-/	.	.	.	.	.	4.gg\	in	.	.	.	.	.	.	.	.	.	.	.	.	.	.	.	.	.	.	.	.	.	.	.	.	.	.	.	.	.	.	.	.	.
8r	.	.	.	8r	8r	.	8r	.	.	.	.	.	.	.	.	.	.	.	.	.	.	.	.	.	.	.	.	.	.	.	.	.	.	.	.	.	.	.	.	.	.	.	.	.	.	.	.
8BB-/	.	.	.	8B-/	8e-/	.	8g/	.	.	.	.	.	.	.	.	.	.	.	.	.	.	.	.	.	.	.	.	.	.	.	.	.	.	.	.	.	.	.	.	.	.	.	.	.	.	.	.
!	!	!	!	!	!	!	!LO:TX:t=P:problem=brak pauzy ósemkowej	!	!	!	!	!	!	!	!	!	!	!	!	!	!	!	!	!	!	!	!	!	!	!	!	!	!	!	!	!	!	!	!	!	!	!	!	!	!	!	!
.	.	.	.	.	.	.	.	.	.	.	.	.	8qgg/	.	.	.	.	.	.	.	.	.	.	.	.	.	.	.	.	.	.	.	.	.	.	.	.	.	.	.	.	.	.	.	.	.	.
8r	.	.	.	8r	8r	.	8ryy	.	.	.	.	.	16ff\LL	ex-	.	.	.	.	.	.	.	.	.	.	.	.	.	.	.	.	.	.	.	.	.	.	.	.	.	.	.	.	.	.	.	.	.
.	.	.	.	.	.	.	.	.	.	.	.	.	16ee-\JJ	.	.	.	.	.	.	.	.	.	.	.	.	.	.	.	.	.	.	.	.	.	.	.	.	.	.	.	.	.	.	.	.	.	.
!LO:LB:g=original	!	!	!	!	!LO:LB:g=original	!	!	!	!	!	!	!	!	!	!	!	!	!	!	!	!	!	!	!	!	!	!	!	!	!	!	!	!	!	!	!	!	!	!	!	!	!	!	!	!	!	!
=41	=41	=41	=41	=41	=41	=41	=41	=41	=41	=41	=41	=41	=41	=41	=41	=41	=41	=41	=41	=41	=41	=41	=41	=41	=41	=41	=41	=41	=41	=41	=41	=41	=41	=41	=41	=41	=41	=41	=41	=41	=41	=41	=41	=41	=41	=41	=41
*tremolo	*	*	*	*tremolo	*tremolo	*	*	*	*	*	*	*	*	*	*	*	*	*	*	*	*	*	*	*	*	*	*	*	*	*	*	*	*	*	*	*	*	*	*	*	*	*	*	*	*	*	*
!LO:TX:b:t=....	!	!	!	!	!	!	!	!	!	!	!	!	!	!	!	!	!	!	!	!	!	!	!	!	!	!	!	!	!	!	!	!	!	!	!	!	!	!	!	!	!	!	!	!	!	!	!
8BB-/L	.	1ryy	1ryy	8B-/L	8d/L	.	16f/LL	00r	.	1r	.	.	8.ff\L	-cel-	.	1ryy	.	.	.	.	.	.	.	1ryy	.	1ryy	.	.	.	.	.	.	.	.	.	.	.	.	.	.	.	.	.	1ryy	.	1ryy	.
.	.	.	.	.	.	.	16d/	.	.	.	.	.	.	.	.	.	.	.	.	.	.	.	.	.	.	.	.	.	.	.	.	.	.	.	.	.	.	.	.	.	.	.	.	.	.	.	.
8BB-/	.	.	.	8B-/	8d/	.	16b-/	.	.	.	.	.	.	.	.	.	.	.	.	.	.	.	.	.	.	.	.	.	.	.	.	.	.	.	.	.	.	.	.	.	.	.	.	.	.	.	.
.	.	.	.	.	.	.	16f/JJ	.	.	.	.	.	16dd\Jk	.	.	.	.	.	.	.	.	.	.	.	.	.	.	.	.	.	.	.	.	.	.	.	.	.	.	.	.	.	.	.	.	.	.
8BB-/	.	.	.	8B-/	8d/	.	16dd\LL	.	.	.	.	.	4b-\	-sis	.	.	.	.	.	.	.	.	.	.	.	.	.	.	.	.	.	.	.	.	.	.	.	.	.	.	.	.	.	.	.	.	.
.	.	.	.	.	.	.	16b-\	.	.	.	.	.	.	.	.	.	.	.	.	.	.	.	.	.	.	.	.	.	.	.	.	.	.	.	.	.	.	.	.	.	.	.	.	.	.	.	.
8BB-/J	.	.	.	8B-/J	8d/J	.	16ff\	.	.	.	.	.	.	.	.	.	.	.	.	.	.	.	.	.	.	.	.	.	.	.	.	.	.	.	.	.	.	.	.	.	.	.	.	.	.	.	.
.	.	.	.	.	.	.	16dd\JJ	.	.	.	.	.	.	.	.	.	.	.	.	.	.	.	.	.	.	.	.	.	.	.	.	.	.	.	.	.	.	.	.	.	.	.	.	.	.	.	.
!LO:TX:b:t=....	!	!	!	!	!	!	!	!	!	!	!	!	!	!	!	!	!	!	!	!	!	!	!	!	!	!	!	!	!	!	!	!	!	!	!	!	!	!	!	!	!	!	!	!	!	!	!
8BB-/L	.	.	.	8B-/L	8d/L	.	8b-\	.	.	.	.	.	4r	.	.	.	.	.	.	.	.	.	.	.	.	.	.	.	.	.	.	.	.	.	.	.	.	.	.	.	.	.	.	.	.	.	.
8BB-/	.	.	.	8B-/	8d/	.	4r	.	.	.	.	.	.	.	.	.	.	.	.	.	.	.	.	.	.	.	.	.	.	.	.	.	.	.	.	.	.	.	.	.	.	.	.	.	.	.	.
8BB-/	.	.	.	8B-/	8d/	.	.	.	.	.	.	.	8b-\	Be-	.	.	.	.	.	.	.	.	.	.	.	.	.	.	.	.	.	.	.	.	.	.	.	.	.	.	.	.	.	.	.	.	.
8BB-/J	.	.	.	8B-/J	8d/J	.	8r	.	.	.	.	.	8b-\	-ne-	.	.	.	.	.	.	.	.	.	.	.	.	.	.	.	.	.	.	.	.	.	.	.	.	.	.	.	.	.	.	.	.	.
*Xtremolo	*	*	*	*Xtremolo	*Xtremolo	*	*	*	*	*	*	*	*	*	*	*	*	*	*	*	*	*	*	*	*	*	*	*	*	*	*	*	*	*	*	*	*	*	*	*	*	*	*	*	*	*	*
!	!	!	!	!LO:LB:g=original	!	!	!	!	!	!	!	!	!	!	!	!	!	!	!	!	!	!	!	!	!	!	!	!	!	!	!	!	!	!	!	!	!	!	!	!	!	!	!	!	!	!	!
=42	=42	=42	=42	=42	=42	=42	=42	=42	=42	=42	=42	=42	=42	=42	=42	=42	=42	=42	=42	=42	=42	=42	=42	=42	=42	=42	=42	=42	=42	=42	=42	=42	=42	=42	=42	=42	=42	=42	=42	=42	=42	=42	=42	=42	=42	=42	=42
!	!	!	!	!	!	!	!LO:TX:a:i:t=tenut	!	!	!	!	!	!	!	!	!	!	!	!	!	!	!	!	!	!	!	!	!	!	!	!	!	!	!	!	!	!	!	!	!	!	!	!	!	!	!	!
[1BB-	.	1ryy	1ryy	1An	1e- 1c	.	1f	.	.	1r	.	.	(2cc\	-dic-	.	1ryy	.	.	.	.	.	.	.	1ryy	.	1ryy	.	.	.	.	.	.	.	.	.	.	.	.	.	.	.	.	.	1ryy	.	1ryy	.
.	.	.	.	.	.	.	.	.	.	.	.	.	8.cc\L	.	.	.	.	.	.	.	.	.	.	.	.	.	.	.	.	.	.	.	.	.	.	.	.	.	.	.	.	.	.	.	.	.	.
.	.	.	.	.	.	.	.	.	.	.	.	.	32dd\LL)	.	.	.	.	.	.	.	.	.	.	.	.	.	.	.	.	.	.	.	.	.	.	.	.	.	.	.	.	.	.	.	.	.	.
.	.	.	.	.	.	.	.	.	.	.	.	.	32ee-\JJJ	.	.	.	.	.	.	.	.	.	.	.	.	.	.	.	.	.	.	.	.	.	.	.	.	.	.	.	.	.	.	.	.	.	.
.	.	.	.	.	.	.	.	.	.	.	.	.	8dd\	-tus	.	.	.	.	.	.	.	.	.	.	.	.	.	.	.	.	.	.	.	.	.	.	.	.	.	.	.	.	.	.	.	.	.
.	.	.	.	.	.	.	.	.	.	.	.	.	8cc\	qui	.	.	.	.	.	.	.	.	.	.	.	.	.	.	.	.	.	.	.	.	.	.	.	.	.	.	.	.	.	.	.	.	.
=43	=43	=43	=43	=43	=43	=43	=43	=43	=43	=43	=43	=43	=43	=43	=43	=43	=43	=43	=43	=43	=43	=43	=43	=43	=43	=43	=43	=43	=43	=43	=43	=43	=43	=43	=43	=43	=43	=43	=43	=43	=43	=43	=43	=43	=43	=43	=43
*	*	*	*	*tremolo	*tremolo	*	*	*	*	*	*	*	*	*	*	*	*	*	*	*	*	*	*	*	*	*	*	*	*	*	*	*	*	*	*	*	*	*	*	*	*	*	*	*	*	*	*
8BB-/L]	.	1ryy	1ryy	8B-/L	8d/L	.	16f/LL	.	.	1r	.	.	4cc\	ve-	.	1ryy	.	.	.	.	.	.	.	1ryy	.	1ryy	.	.	.	.	.	.	.	.	.	.	.	.	.	.	.	.	.	1ryy	.	1ryy	.
.	.	.	.	.	.	.	16d/	.	.	.	.	.	.	.	.	.	.	.	.	.	.	.	.	.	.	.	.	.	.	.	.	.	.	.	.	.	.	.	.	.	.	.	.	.	.	.	.
8BB-/	.	.	.	8B-/	8d/	.	16b-/	.	.	.	.	.	.	.	.	.	.	.	.	.	.	.	.	.	.	.	.	.	.	.	.	.	.	.	.	.	.	.	.	.	.	.	.	.	.	.	.
.	.	.	.	.	.	.	16f/JJ	.	.	.	.	.	.	.	.	.	.	.	.	.	.	.	.	.	.	.	.	.	.	.	.	.	.	.	.	.	.	.	.	.	.	.	.	.	.	.	.
8BB-/	.	.	.	8B-/	8d/	.	16dd\LL	.	.	.	.	.	4b-\	-nit	.	.	.	.	.	.	.	.	.	.	.	.	.	.	.	.	.	.	.	.	.	.	.	.	.	.	.	.	.	.	.	.	.
.	.	.	.	.	.	.	16b-\	.	.	.	.	.	.	.	.	.	.	.	.	.	.	.	.	.	.	.	.	.	.	.	.	.	.	.	.	.	.	.	.	.	.	.	.	.	.	.	.
8BB-/J	.	.	.	8B-/J	8d/J	.	16ff\	.	.	.	.	.	.	.	.	.	.	.	.	.	.	.	.	.	.	.	.	.	.	.	.	.	.	.	.	.	.	.	.	.	.	.	.	.	.	.	.
.	.	.	.	.	.	.	16dd\JJ	.	.	.	.	.	.	.	.	.	.	.	.	.	.	.	.	.	.	.	.	.	.	.	.	.	.	.	.	.	.	.	.	.	.	.	.	.	.	.	.
*tremolo	*	*	*	*	*	*	*	*	*	*	*	*	*	*	*	*	*	*	*	*	*	*	*	*	*	*	*	*	*	*	*	*	*	*	*	*	*	*	*	*	*	*	*	*	*	*	*
!	!	!	!	!	!	!	!	!	!	!	!	!	!LO:LB:g=original	!	!	!	!	!	!	!	!	!	!	!	!	!	!	!	!	!	!	!	!	!	!	!	!	!	!	!	!	!	!	!	!	!	!
8BB-/L	.	.	.	8B-/L	8d/L	.	8b-\	.	.	.	.	.	4r	.	.	.	.	.	.	.	.	.	.	.	.	.	.	.	.	.	.	.	.	.	.	.	.	.	.	.	.	.	.	.	.	.	.
8BB-/	.	.	.	8B-/	8d/	.	4r	.	.	.	.	.	.	.	.	.	.	.	.	.	.	.	.	.	.	.	.	.	.	.	.	.	.	.	.	.	.	.	.	.	.	.	.	.	.	.	.
8BB-/	.	.	.	8B-/	8d/	.	.	.	.	.	.	.	4b-\	in	.	.	.	.	.	.	.	.	.	.	.	.	.	.	.	.	.	.	.	.	.	.	.	.	.	.	.	.	.	.	.	.	.
8BB-/J	.	.	.	8B-/J	8d/J	.	8r	.	.	.	.	.	.	.	.	.	.	.	.	.	.	.	.	.	.	.	.	.	.	.	.	.	.	.	.	.	.	.	.	.	.	.	.	.	.	.	.
*Xtremolo	*	*	*	*Xtremolo	*Xtremolo	*	*	*	*	*	*	*	*	*	*	*	*	*	*	*	*	*	*	*	*	*	*	*	*	*	*	*	*	*	*	*	*	*	*	*	*	*	*	*	*	*	*
=44	=44	=44	=44	=44	=44	=44	=44	=44	=44	=44	=44	=44	=44	=44	=44	=44	=44	=44	=44	=44	=44	=44	=44	=44	=44	=44	=44	=44	=44	=44	=44	=44	=44	=44	=44	=44	=44	=44	=44	=44	=44	=44	=44	=44	=44	=44	=44
!	!	!	!	!	!	!	!LO:TX:a:i:t=tenuto	!	!	!	!	!	!	!	!	!	!	!	!	!	!	!	!	!	!	!	!	!	!	!	!	!	!	!	!	!	!	!	!	!	!	!	!	!	!	!	!
[1BB-	.	1ryy	1ryy	1An	1e- 1c	.	1f	.	.	1r	.	.	[2an\	no-	.	1ryy	.	1r	.	1r	.	1r	.	1ryy	.	1ryy	.	1r	.	1r	.	1r	.	1r	.	1r	.	1r	.	1r	.	1r	.	1ryy	.	1ryy	.
.	.	.	.	.	.	.	.	.	.	.	.	.	8a\L]	.	.	.	.	.	.	.	.	.	.	.	.	.	.	.	.	.	.	.	.	.	.	.	.	.	.	.	.	.	.	.	.	.	.
.	.	.	.	.	.	.	.	.	.	.	.	.	8cc\J	.	.	.	.	.	.	.	.	.	.	.	.	.	.	.	.	.	.	.	.	.	.	.	.	.	.	.	.	.	.	.	.	.	.
.	.	.	.	.	.	.	.	.	.	.	.	.	8dd\	-mi-	.	.	.	.	.	.	.	.	.	.	.	.	.	.	.	.	.	.	.	.	.	.	.	.	.	.	.	.	.	.	.	.	.
.	.	.	.	.	.	.	.	.	.	.	.	.	8ee-\	-ne	.	.	.	.	.	.	.	.	.	.	.	.	.	.	.	.	.	.	.	.	.	.	.	.	.	.	.	.	.	.	.	.	.
!	!	!	!	!	!	!	!LO:LB:g=original	!	!	!	!	!	!	!	!	!	!	!	!	!	!	!	!	!	!	!	!	!	!	!	!	!	!	!	!	!	!	!LO:LB:g=original	!	!	!	!	!	!	!	!	!
=45	=45	=45	=45	=45	=45	=45	=45	=45	=45	=45	=45	=45	=45	=45	=45	=45	=45	=45	=45	=45	=45	=45	=45	=45	=45	=45	=45	=45	=45	=45	=45	=45	=45	=45	=45	=45	=45	=45	=45	=45	=45	=45	=45	=45	=45	=45	=45
8BB-/L]	.	1ryy	1ryy	8A-X/L	8d/L	.	16f/LL	0r	.	1r	.	.	8.ff\	Do-	.	1ryy	.	2r	.	2r	.	2r	.	1ryy	.	1ryy	.	2r	.	2r	.	2r	.	2r	.	2r	.	2r	.	2r	.	2r	.	1ryy	.	1ryy	.
.	.	.	.	.	.	.	16d/	.	.	.	.	.	.	.	.	.	.	.	.	.	.	.	.	.	.	.	.	.	.	.	.	.	.	.	.	.	.	.	.	.	.	.	.	.	.	.	.
!	!	!	!	!	!LO:SIC:v:s=8A-/	!	!	!	!	!	!	!	!	!	!	!	!	!	!	!	!	!	!	!	!	!	!	!	!	!	!	!	!	!	!	!	!	!	!	!	!	!	!	!	!	!	!
8BB-/	.	.	.	8F/	8A/	.	16a-X/	.	.	.	.	.	.	.	.	.	.	.	.	.	.	.	.	.	.	.	.	.	.	.	.	.	.	.	.	.	.	.	.	.	.	.	.	.	.	.	.
.	.	.	.	.	.	.	16f/JJ	.	.	.	.	.	16a-X\	-mi-	.	.	.	.	.	.	.	.	.	.	.	.	.	.	.	.	.	.	.	.	.	.	.	.	.	.	.	.	.	.	.	.	.
!	!	!	!	!	!LO:SIC:v:s=8A-/	!	!	!	!	!	!	!	!	!	!	!	!	!	!	!	!	!	!	!	!	!	!	!	!	!	!	!	!	!	!	!	!	!	!	!	!	!	!	!	!	!	!
8BB-/	.	.	.	8F/	8A/	.	16dd\LL	.	.	.	.	.	4a-\	-ni	.	.	.	.	.	.	.	.	.	.	.	.	.	.	.	.	.	.	.	.	.	.	.	.	.	.	.	.	.	.	.	.	.
.	.	.	.	.	.	.	16a-\	.	.	.	.	.	.	.	.	.	.	.	.	.	.	.	.	.	.	.	.	.	.	.	.	.	.	.	.	.	.	.	.	.	.	.	.	.	.	.	.
!	!	!	!	!	!LO:SIC:v:s=8A-/	!	!	!	!	!	!	!	!	!	!	!	!	!	!	!	!	!	!	!	!	!	!	!	!	!	!	!	!	!	!	!	!	!	!	!	!	!	!	!	!	!	!
8BB-/J	.	.	.	8F/J	8A/J	.	16ff\	.	.	.	.	.	.	.	.	.	.	.	.	.	.	.	.	.	.	.	.	.	.	.	.	.	.	.	.	.	.	.	.	.	.	.	.	.	.	.	.
.	.	.	.	.	.	.	16dd\JJ	.	.	.	.	.	.	.	.	.	.	.	.	.	.	.	.	.	.	.	.	.	.	.	.	.	.	.	.	.	.	.	.	.	.	.	.	.	.	.	.
*tremolo	*	*	*	*tremolo	*tremolo	*	*	*	*	*	*	*	*	*	*	*	*	*	*	*	*	*	*	*	*	*	*	*	*	*	*	*	*	*	*	*	*	*	*	*	*	*	*	*	*	*	*
!LO:TX:b:t=....	!	!	!	!	!LO:SIC:v:s=8A-/L	!	!	!	!	!	!	!	!	!	!	!	!	!	!	!	!	!	!	!	!	!	!	!	!	!	!	!	!	!	!	!	!	!	!	!	!	!	!	!	!	!	!
8BB-/L	.	.	.	8F/L	8A/L	.	16aa-\LL	.	.	.	.	.	4r	.	.	.	.	2BB-/	<	(2A-\	<	2d\	<[	.	.	.	.	(2B-/	<	(2f\	<	(2B-\	.	(2B-\	.	(2ff\	.	(2aa-\	.	(2dd\	.	(2ff\	.	.	.	.	.
.	.	.	.	.	.	.	16ff\	.	.	.	.	.	.	.	.	.	.	.	.	.	.	.	.	.	.	.	.	.	.	.	.	.	.	.	.	.	.	.	.	.	.	.	.	.	.	.	.
!	!	!	!	!	!LO:SIC:v:s=8A-/	!	!	!	!	!	!	!	!	!	!	!	!	!	!	!	!	!	!	!	!	!	!	!	!	!	!	!	!	!	!	!	!	!	!	!	!	!	!	!	!	!	!
8BB-/	.	.	.	8F/	8A/	.	16dd\	.	.	.	.	.	.	.	.	.	.	.	.	.	.	.	.	.	.	.	.	.	.	.	.	.	.	.	.	.	.	.	.	.	.	.	.	.	.	.	.
.	.	.	.	.	.	.	16a-\JJ	.	.	.	.	.	.	.	.	.	.	.	.	.	.	.	.	.	.	.	.	.	.	.	.	.	.	.	.	.	.	.	.	.	.	.	.	.	.	.	.
!	!	!	!	!	!LO:SIC:v:s=8A-/	!	!	!	!	!	!	!	!	!	!	!	!	!	!	!	!	!	!	!	!	!	!	!	!	!	!	!	!	!	!	!	!	!	!	!	!	!	!	!	!	!	!
8BB-/	.	.	.	8F/	8A/	.	16f/LL	.	.	.	.	.	8r	.	.	.	.	.	.	.	.	.	.	.	.	.	.	.	.	.	.	.	.	.	.	.	.	.	.	.	.	.	.	.	.	.	.
.	.	.	.	.	.	.	16d/	.	.	.	.	.	.	.	.	.	.	.	.	.	.	.	.	.	.	.	.	.	.	.	.	.	.	.	.	.	.	.	.	.	.	.	.	.	.	.	.
!	!	!	!	!	!LO:SIC:v:s=8A-/J	!	!	!	!	!	!	!	!	!	!	!	!	!	!	!	!	!	!	!	!	!	!	!	!	!	!	!	!	!	!	!	!	!	!	!	!	!	!	!	!	!	!
8BB-/J	.	.	.	8F/J	8A/J	.	16B-/	.	.	.	.	.	8a-\	o-	.	.	.	.	.	.	.	.	.	.	.	.	.	.	.	.	.	.	.	.	.	.	.	.	.	.	.	.	.	.	.	.	.
.	.	.	.	.	.	.	16d/JJ	.	.	.	.	.	.	.	.	.	.	.	.	.	.	.	.	.	.	.	.	.	.	.	.	.	.	.	.	.	.	.	.	.	.	.	.	.	.	.	.
*Xtremolo	*	*	*	*Xtremolo	*Xtremolo	*	*	*	*	*	*	*	*	*	*	*	*	*	*	*	*	*	*	*	*	*	*	*	*	*	*	*	*	*	*	*	*	*	*	*	*	*	*	*	*	*	*
=46	=46	=46	=46	=46	=46	=46	=46	=46	=46	=46	=46	=46	=46	=46	=46	=46	=46	=46	=46	=46	=46	=46	=46	=46	=46	=46	=46	=46	=46	=46	=46	=46	=46	=46	=46	=46	=46	=46	=46	=46	=46	=46	=46	=46	=46	=46	=46
4BB-/	f	1ryy	1ryy	4E-/	4G/	.	4e-/	.	.	1r	.	.	8g\L	-san-	.	1ryy	.	4BB-/	[ f	4G\)	[ f	4e-\	.	1ryy	.	1ryy	.	4e-\)	[ f	8g\)	[	4BB-/)	.	4BB-/)	.	4ee-\)	.	4gg\)	.	4ee-\)	.	4gg\)	.	1ryy	.	1ryy	.
.	.	.	.	.	.	.	.	.	.	.	.	.	8b-\J	.	.	.	.	.	.	.	.	.	.	.	.	.	.	.	.	8r	f	.	.	.	.	.	.	.	.	.	.	.	.	.	.	.	.
4r;	.	.	.	4r;	4r;	.	4r;	.	.	.	.	.	8ee-\L	-na	.	.	.	4r;	.	4r;	.	4r;	.	.	.	.	.	4r;	.	4r;	.	4r;	.	4r;	.	4r;	.	4r;	.	4r;	.	4r;	.	.	.	.	.
.	.	.	.	.	.	.	.	.	.	.	.	.	8gg\J	.	.	.	.	.	.	.	.	.	.	.	.	.	.	.	.	.	.	.	.	.	.	.	.	.	.	.	.	.	.	.	.	.	.
2r	.	.	.	2r;	2r;	.	2r;	.	.	.	.	.	4.bb-;\	in	.	.	.	2r	.	2r	.	2r	.	.	.	.	.	2r	.	2r	.	2r	.	2r	.	2r	.	2r	.	2r	.	2r	.	.	.	.	.
.	.	.	.	.	.	.	.	.	.	.	.	.	16gg\LL	ex-	.	.	.	.	.	.	.	.	.	.	.	.	.	.	.	.	.	.	.	.	.	.	.	.	.	.	.	.	.	.	.	.	.
!	!	!	!	!LO:TX:t=P:problem=kreska taktowa podwójna	!LO:TX:t=P:problem=kreska taktowa podwójna	!	!	!	!	!	!	!	!	!	!	!	!	!	!	!	!	!	!	!	!	!	!	!	!	!	!	!	!	!	!	!	!	!	!	!	!	!	!	!	!	!	!
.	.	.	.	.	.	.	.	.	.	.	.	.	16ee-\JJ	.	.	.	.	.	.	.	.	.	.	.	.	.	.	.	.	.	.	.	.	.	.	.	.	.	.	.	.	.	.	.	.	.	.
!LO:PB:g=original	!	!	!	!	!	!	!	!	!	!	!	!	!LO:LB:g=original	!	!	!	!	!	!	!	!	!	!	!	!	!	!	!	!	!	!	!	!	!	!	!	!	!	!	!	!	!	!	!	!	!	!
=47	=47	=47	=47	=47	=47	=47	=47	=47	=47	=47	=47	=47	=47	=47	=47	=47	=47	=47	=47	=47	=47	=47	=47	=47	=47	=47	=47	=47	=47	=47	=47	=47	=47	=47	=47	=47	=47	=47	=47	=47	=47	=47	=47	=47	=47	=47	=47
4BB-/	p	1ryy	1ryy	4F/	4B-/	.	4d/	1r	.	1r	.	.	4.b-\	-cel-	.	1ryy	.	1r;	.	1r;	.	1r;	.	1ryy	.	1ryy	.	1r;	.	1r;	.	1r;	.	1r;	.	1r;	.	1r;	.	1r;	.	1r;	.	1ryy	.	1ryy	.
!	!	!	!	!LO:TX:t=P:problem=fermata nad dwiema pauzami	!LO:TX:t=P:problem=fermata nad dwiema pauzami	!	!	!	!	!	!	!	!	!	!	!	!	!	!	!	!	!	!	!	!	!	!	!	!	!	!	!	!	!	!	!	!	!	!	!	!	!	!	!	!	!	!
4r;	.	.	.	4r	4r	.	4r;	.	.	.	.	.	.	.	.	.	.	.	.	.	.	.	.	.	.	.	.	.	.	.	.	.	.	.	.	.	.	.	.	.	.	.	.	.	.	.	.
.	.	.	.	.	.	.	.	.	.	.	.	.	8qdd/	.	.	.	.	.	.	.	.	.	.	.	.	.	.	.	.	.	.	.	.	.	.	.	.	.	.	.	.	.	.	.	.	.	.
.	.	.	.	.	.	.	.	.	.	.	.	.	8cc\	.	.	.	.	.	.	.	.	.	.	.	.	.	.	.	.	.	.	.	.	.	.	.	.	.	.	.	.	.	.	.	.	.	.
2r	.	.	.	2r;	2r;	.	2r;	.	.	.	.	.	4b-\	-sis,	.	.	.	.	.	.	.	.	.	.	.	.	.	.	.	.	.	.	.	.	.	.	.	.	.	.	.	.	.	.	.	.	.
.	.	.	.	.	.	.	.	.	.	.	.	.	4r	.	.	.	.	.	.	.	.	.	.	.	.	.	.	.	.	.	.	.	.	.	.	.	.	.	.	.	.	.	.	.	.	.	.
==	==	==	==	==	==	==	==	==	==	==	==	==	==	==	==	==	==	==	==	==	==	==	==	==	==	==	==	==	==	==	==	==	==	==	==	==	==	==	==	==	==	==	==	==	==	==	==
*-	*-	*-	*-	*-	*-	*-	*-	*-	*-	*-	*-	*-	*-	*-	*-	*-	*-	*-	*-	*-	*-	*-	*-	*-	*-	*-	*-	*-	*-	*-	*-	*-	*-	*-	*-	*-	*-	*-	*-	*-	*-	*-	*-	*-	*-	*-	*-
!!!system-decoration: [(g1)][(g2)]s16[(g3)][(g4)]
!!!RDF**kern: > = above
!!!RDF**kern: < = below
!!!ENC: Andrzej Kubiczek
!!!END: 2020-09-12
!!!ENC: Marta Lawrence
!!!END: 2022-02-09
!!!YEC: Copyright 2022 Narodowy Instytut Fryderyka Chopina (https://polishscores.org)
!!!YEM: License CC-BY-4.0 (https://creativecommons.org/licenses/by/4.0)
